!!!!SEGMENT: pl-wn--mus-iii-65-947-cim--010_sowinski-wojciech--swiety-wojciech-meczennik-no-9-blogoslawienstwo.krn
!!!cenid: 18xx:3603
!!!COM: Sowiński, Wojciech
!!!COM-rismID: pe30008543
!!!CDT: ~1803-1880/03/05
!!!CNT:
!!!GTL: Święty Wojciech męczennik
!!!OTL: No. 9. Błogosławieństwo
!!!PDT: 1877
!!!AGN:
!!!SMS-siglum: PL-Wn
!!!SMS-shelfmark: Mus.III.65.947 Cim.
!!!SMS-shelfwork: 010 G
!!!SMS-variant:
!!!SMS-altvar:
!!!NIFC-rismSourceID:
!!!NIFC-islandoraID:
!!!URL-pdf-islandora:
!!!URL-scan: https://polona.pl/item/swiety-wojciech-meczennik-oratorjo-w-trzech-czesciach-dzielo-66-spiew-z-fortepianem,MTkzODI1Mzc/242/#item @EN{Scan on Polona} @PL{Skany w portalu Polona}
!!!ONB-nifc: UWAGA: oratorium zawiera w źródle 28 numerów podzielonych na 30 plików (rozdzielenie w No. 6 - osobno Recitativo oraz Aria matki i No. 10 - osobno Recitativo, arja i chór oraz Sen). Polecam widok miniatur na Polonie. Uwaga co do obsady: prosimy umieszczać tylko partie występujące w danym numerze (nie całą obsadę oratorium)
!!!AIN: 1 bass 1 mezzo 2 piano 1 soprn 1 tenor
!!!key: E-
**kern	**dynam	**kern	**dynam	**kern	**text	**dynam	**kern	**text	**dynam	**kern	**text	**dynam	**kern	**text	**dynam
*part6	*part5	*part5	*part5	*part4	*part4	*part4	*part3	*part3	*part3	*part2	*part2	*part2	*part1	*part1	*part1
*staff6	*	*staff5	*	*staff4	*staff4	*	*staff3	*staff3	*	*staff2	*staff2	*	*staff1	*staff1	*
*	*	*I"Piano	*	*I"Bas.	*	*	*I"Tenor.	*	*	*I"Mo. sopran.	*	*	*I"Sopran.	*	*
*I'P-no	*	*I'P-no	*	*I'B.	*	*	*I'T.	*	*	*I'Mezzo-S.	*	*	*I'S.	*	*
*Ipiano	*	*Ipiano	*	*Ibass	*	*	*Itenor	*	*	*Imezzo	*	*	*Isoprn	*	*
*ICklav	*	*ICklav	*	*ICvox	*	*	*ICvox	*	*	*ICvox	*	*	*ICvox	*	*
*IGacmp	*	*IGacmp	*	*IGcoro	*	*	*IGcoro	*	*	*IGcoro	*	*	*IGcoro	*	*
*clefF4	*	*clefG2	*	*clefF4	*	*	*clefGv2	*	*	*clefG2	*	*	*clefG2	*	*
*k[b-e-a-]	*	*k[b-e-a-]	*	*k[b-e-a-]	*	*	*k[b-e-a-]	*	*	*k[b-e-a-]	*	*	*k[b-e-a-]	*	*
*E-:	*	*E-:	*	*E-:	*	*	*E-:	*	*	*E-:	*	*	*E-:	*	*
*M3/4	*	*M3/4	*	*M3/4	*	*	*M3/4	*	*	*M3/4	*	*	*M3/4	*	*
4r	.	4b-^\	f	4r	.	.	4r	.	.	4r	.	.	4r	.	.
=1	=1	=1	=1	=1	=1	=1	=1	=1	=1	=1	=1	=1	=1	=1	=1
*^	*	*	*	*	*	*	*	*	*	*	*	*	*	*	*
4.e-/	2.E-\	.	4.g\ 4.ee-	.	2.r	.	.	2.r	.	.	2.r	.	.	2.r	.	.
8f/	.	.	8a-\ 8dd	.	.	.	.	.	.	.	.	.	.	.	.	.
4e-/	.	.	4g\ 4ee-	.	.	.	.	.	.	.	.	.	.	.	.	.
*v	*v	*	*	*	*	*	*	*	*	*	*	*	*	*	*	*
=2	=2	=2	=2	=2	=2	=2	=2	=2	=2	=2	=2	=2	=2	=2	=2
4B-\ 4d	.	4f\ 4b- 4ff	.	2.r	.	.	2.r	.	.	2.r	.	.	2.r	.	.
4B-\ 4d	.	4f\ 4dd	.	.	.	.	.	.	.	.	.	.	.	.	.
4B-\ 4d	.	4f/ 4b-	.	.	.	.	.	.	.	.	.	.	.	.	.
=3	=3	=3	=3	=3	=3	=3	=3	=3	=3	=3	=3	=3	=3	=3	=3
*	*	*^	*	*	*	*	*	*	*	*	*	*	*	*	*
2E-\ 2e-	.	2gg/	2g^\ 2b-	sf	2.r	.	.	2.r	.	.	2.r	.	.	2.r	.	.
4e-\	.	4ee-/	4ryy	.	.	.	.	.	.	.	.	.	.	.	.	.
*	*	*v	*v	*	*	*	*	*	*	*	*	*	*	*	*	*
=4	=4	=4	=4	=4	=4	=4	=4	=4	=4	=4	=4	=4	=4	=4	=4
4B-\	.	4b-/	<	2.r	.	.	2.r	.	.	2.r	.	.	2.r	.	.
4G\	.	4g/	.	.	.	.	.	.	.	.	.	.	.	.	.
4E-\	.	4e-/	[	.	.	.	.	.	.	.	.	.	.	.	.
=5	=5	=5	=5	=5	=5	=5	=5	=5	=5	=5	=5	=5	=5	=5	=5
*	*	*^	*	*	*	*	*	*	*	*	*	*	*	*	*
2.C\ 2.c	.	4.a-/	2.e-\	.	2.r	.	.	2.r	.	.	2.r	.	.	2.r	.	.
.	.	8g/	.	.	.	.	.	.	.	.	.	.	.	.	.	.
.	.	4a-/	.	.	.	.	.	.	.	.	.	.	.	.	.	.
=6	=6	=6	=6	=6	=6	=6	=6	=6	=6	=6	=6	=6	=6	=6	=6	=6
2.BB-\ 2.B-	.	4f/	2.d\	.	2.r	.	.	2.r	.	.	2.r	.	.	2.r	.	.
.	.	4b-/	.	.	.	.	.	.	.	.	.	.	.	.	.	.
.	.	4a-/	.	.	.	.	.	.	.	.	.	.	.	.	.	.
*	*	*v	*v	*	*	*	*	*	*	*	*	*	*	*	*	*
=7	=7	=7	=7	=7	=7	=7	=7	=7	=7	=7	=7	=7	=7	=7	=7
4BBB-/ 4BB-	.	2.B-^/ 2.f 2.b-	sf	2.r	.	.	2.r	.	.	2.r	.	.	2.r	.	.
4CC/ 4C	.	.	.	.	.	.	.	.	.	.	.	.	.	.	.
4DD/ 4D	.	.	.	.	.	.	.	.	.	.	.	.	.	.	.
!!LO:LB:g=original
=8	=8	=8	=8	=8	=8	=8	=8	=8	=8	=8	=8	=8	=8	=8	=8
4EE-/ 4E-	.	2e-/ 2g	.	4r	.	.	4r	.	.	4r	.	.	4r	.	.
(8B-\L	.	.	.	4r	.	.	4r	.	.	4r	.	.	4r	.	.
8A-\	.	.	.	.	.	.	.	.	.	.	.	.	.	.	.
!	!	!	!	!	!	!LO:DY:a	!	!	!LO:DY:a	!	!	!LO:DY:a	!	!	!LO:DY:a
8G\	.	4b-/	.	4B-\	Niech	f	4B-\	Niech	f	4b-\	Niech	f	4b-\	Niech	f
8F\J)	.	.	.	.	.	.	.	.	.	.	.	.	.	.	.
=9	=9	=9	=9	=9	=9	=9	=9	=9	=9	=9	=9	=9	=9	=9	=9
*	*	*^	*	*	*	*	*	*	*	*	*	*	*	*	*
2E-\ 2e-	.	4.ee-/	2g\ 2b-	f	2E-\	wiecz-	.	2B-\	wiecz-	.	2g/	wiecz-	.	2ee-\	wiecz-	.
.	.	8dd/	.	.	.	.	.	.	.	.	.	.	.	.	.	.
4E-\ 4e-	.	4ee-/	4g\ 4b-	.	4E-\	-nie	.	4B-\	-nie	.	4g/	-nie	.	4ee-\	-nie	.
=10	=10	=10	=10	=10	=10	=10	=10	=10	=10	=10	=10	=10	=10	=10	=10	=10
2BB-:\ 2B-: 2d:	.	4ff/	2g\ 2b-	.	2BB-/	ży-	.	(4d\	ży-	.	(4f/	ży-	.	(4ff\	ży-	.
.	.	4dd/	.	.	.	.	.	4f\)	.	.	4d/)	.	.	4dd\)	.	.
4D\ 4d	.	4b-/	4f\	.	4D/	-je	.	4B-\	-je	.	4f/	-je	.	4b-\	-je	.
=11	=11	=11	=11	=11	=11	=11	=11	=11	=11	=11	=11	=11	=11	=11	=11	=11
2.E-\ 2.e-	.	2gg/	2.g\ 2.b-	.	2.E-\	kto	.	2e-\	kto	.	2g/	kto	.	2gg\	kto	.
.	.	4ee-/	.	.	.	.	.	4e-\	nie-	.	4g/	nie-	.	4ee-\	nie	.
*	*	*v	*v	*	*	*	*	*	*	*	*	*	*	*	*	*
=12	=12	=12	=12	=12	=12	=12	=12	=12	=12	=12	=12	=12	=12	=12	=12
4.E-\ 4.e-	.	4b-/	>	4E-\	nie-	.	4c\	-do-	.	(4g/	-do-	.	(4b-/	do-	.
.	.	4g/	.	(4E-\	-do-	.	4c\	-lę	.	4e-/)	.	.	4g/)	.	.
8E-\L	.	.	.	.	.	.	.	.	.	.	.	.	.	.	.
8G\	.	4e-/	]	4G\)	.	.	4r	.	.	4B-/	-lę	.	4e-/	-lę	.
8E-\J	.	.	.	.	.	.	.	.	.	.	.	.	.	.	.
=13	=13	=13	=13	=13	=13	=13	=13	=13	=13	=13	=13	=13	=13	=13	=13
*	*	*^	*	*	*	*	*	*	*	*	*	*	*	*	*
2.C\ 2.c	.	4.a-/	2.e-\	.	4C/	-lę	.	(4.c\	kto	.	2e-/	kto	.	2a-/	kto	.
.	.	.	.	.	4r	.	.	.	.	.	.	.	.	.	.	.
.	.	8g/	.	.	.	.	.	8Bn\)	.	.	.	.	.	.	.	.
.	.	4a-/	.	.	4r	.	.	4c\	nie-	.	4e-/	nie-	.	4a-/	nie	.
=14	=14	=14	=14	=14	=14	=14	=14	=14	=14	=14	=14	=14	=14	=14	=14	=14
2BB-\ 2B-	.	4f/	2d\	>	4B-\	nie-	.	[4d\	-do-	.	2f/	-do-	.	(4f/	do-	.
.	.	4b-/	.	.	4B-\	-do-	.	4d\]	.	.	.	.	.	4b-/)	.	.
4BB-\ 4B-	.	4d/ 4f 4a-	4ryy	.	4B-\	-lę	.	4d\	-lę	.	4f/	-lę	.	4a-/	-lę	.
*	*	*v	*v	*	*	*	*	*	*	*	*	*	*	*	*	*
=15	=15	=15	=15	=15	=15	=15	=15	=15	=15	=15	=15	=15	=15	=15	=15
4.BB-^/	.	((2.B-^/ 2.f 2.a-	]	2.BB-^/	sło-	.	(2d^\	sło-	.	2.f^/	sło-	.	2.a-^/	sło-	.
(8BB-/L	.	.	.	.	.	.	.	.	.	.	.	.	.	.	.
8C/	.	.	.	.	.	.	8c\L	.	.	.	.	.	.	.	.
8D/J	.	.	.	.	.	.	8B-\J)	.	.	.	.	.	.	.	.
=16	=16	=16	=16	=16	=16	=16	=16	=16	=16	=16	=16	=16	=16	=16	=16
8E-\L	.	2e-/)) 2g	.	2E-\	-dzi	.	2B-\	-dzi	.	2e-/	-dzi	.	2g/	-dzi	.
8D\	.	.	.	.	.	.	.	.	.	.	.	.	.	.	.
8E-\	.	.	.	.	.	.	.	.	.	.	.	.	.	.	.
8F\	.	.	.	.	.	.	.	.	.	.	.	.	.	.	.
8G\	.	4r	.	4r	.	.	4r	.	.	4r	.	.	4r	.	.
8E-\J)	.	.	.	.	.	.	.	.	.	.	.	.	.	.	.
!!LO:LB:g=original
=17	=17	=17	=17	=17	=17	=17	=17	=17	=17	=17	=17	=17	=17	=17	=17
4AA-\ 4A-	.	4c/ 4e- 4cc	.	2.r	.	.	2A-/	Bra-	.	(4.cc\	Bra-	.	2.r	.	.
4r	.	4r	.	.	.	.	.	.	.	.	.	.	.	.	.
.	.	.	.	.	.	.	.	.	.	8bn\)	.	.	.	.	.
4AA-\ 4A-	.	4c/ 4cc	.	.	.	.	4A-/	-ta	.	4cc\	-ta	.	.	.	.
=18	=18	=18	=18	=18	=18	=18	=18	=18	=18	=18	=18	=18	=18	=18	=18
4BB-\ 4B-	.	4d/ 4f 4dd	.	2.r	.	.	2B-/	i	.	(4dd\	i	.	2.r	.	.
4r	.	4r	.	.	.	.	.	.	.	4cc\)	.	.	.	.	.
(8B-\L	.	4d/ 4f 4dd	.	.	.	.	(8B-\L	tu-	.	4dd\	tu-	.	.	.	.
8A-\J)	.	.	.	.	.	.	8A-\J)	.	.	.	.	.	.	.	.
=19	=19	=19	=19	=19	=19	=19	=19	=19	=19	=19	=19	=19	=19	=19	=19
*	*	*^	*	*	*	*	*	*	*	*	*	*	*	*	*
*	*	*	*^	*	*	*	*	*	*	*	*	*	*	*	*	*
4G\	.	4ee-/	4e-\	2.b-\	<	2.r	.	.	(4G\	-ła-	.	(4ee-\	-ła-	.	2.r	.	.
4F\	.	4ff/	4f\	.	.	.	.	.	4B-\	.	.	4ff\	.	.	.	.	.
4E-\	.	4gg/	4g\	.	]	.	.	.	4e-\)	.	.	4gg\)	.	.	.	.	.
*	*	*v	*v	*v	*	*	*	*	*	*	*	*	*	*	*	*	*
=20	=20	=20	=20	=20	=20	=20	=20	=20	=20	=20	=20	=20	=20	=20	=20
!	!	!	!	!	!	!LO:DY:a	!	!	!LO:DY:a	!	!	!LO:DY:a	!	!	!
4E-\ 4e-	.	8ee-\L	.	4E-\	Niech	f	2g\	-cza	f	2ee-\	-cza	f	4r	.	.
.	.	8g\	.	.	.	.	.	.	.	.	.	.	.	.	.
4r	.	8b-\	.	4E-\	wiecz-	.	.	.	.	.	.	.	4r	.	.
.	.	8ee-\	.	.	.	.	.	.	.	.	.	.	.	.	.
!	!	!	!	!	!	!	!	!	!	!	!	!	!	!	!LO:DY:a
4En\ 4B- 4c#X	.	8g\	.	4En\	-nie	.	4c#X\	Niech	.	4b-\	Niech	.	4gg\	Niech	f
.	.	8gg\J	.	.	.	.	.	.	.	.	.	.	.	.	.
=21	=21	=21	=21	=21	=21	=21	=21	=21	=21	=21	=21	=21	=21	=21	=21
2.F\ 2.B- 2.d	.	4f\ 4b- 4dd 4ff	f	2F\	wiecz-	.	2d\	wiecz-	.	2b-\	wiecz-	.	2ff\	wiecz-	.
.	.	8f\L	.	.	.	.	.	.	.	.	.	.	.	.	.
.	.	8b-\	.	.	.	.	.	.	.	.	.	.	.	.	.
.	.	8dd\	.	4F\	-nie	.	4d\	-nie	.	4b-\	-nie	.	4ff\	-nie	.
.	.	8ff\J	.	.	.	.	.	.	.	.	.	.	.	.	.
=22	=22	=22	=22	=22	=22	=22	=22	=22	=22	=22	=22	=22	=22	=22	=22
4FF^\ 4F	.	8an\L 8ee-	.	2.F\	ży-	.	(4c\	ży-	.	(4an/	ży-	.	(4ee-\	ży-	.
.	.	8f\	.	.	.	.	.	.	.	.	.	.	.	.	.
4FF^\ 4F	.	8b-\ 8dd	.	.	.	.	4B-\	.	.	4f/	.	.	4dd\	.	.
.	.	8f\	.	.	.	.	.	.	.	.	.	.	.	.	.
4FF^\ 4F	.	8a\ 8cc	.	.	.	.	4An\)	.	.	4e-/)	.	.	4cc\)	.	.
.	.	8f\J	.	.	.	.	.	.	.	.	.	.	.	.	.
=23	=23	=23	=23	=23	=23	=23	=23	=23	=23	=23	=23	=23	=23	=23	=23
2BB-^<\ 2B-	.	4d^/ 4f 4b-	.	2BB-/	-je!	.	2B-\	-je!	.	2d/	-je!	.	2b-\	-je!	.
.	.	4r	.	.	.	.	.	.	.	.	.	.	.	.	.
4GG^<\ 4G	.	4d^/ 4f 4bn	.	4r	.	.	4r	.	.	4r	.	.	4r	.	.
=24	=24	=24	=24	=24	=24	=24	=24	=24	=24	=24	=24	=24	=24	=24	=24
4C^<\ 4c	.	4e-^/ 4cc	.	4r	.	.	4r	.	.	4r	.	.	4r	.	.
8BB-\L 8B-	.	2d^/ 2dd	.	4r	.	.	4r	.	.	4r	.	.	4r	.	.
8AA-\ 8A-	.	.	.	.	.	.	.	.	.	.	.	.	.	.	.
8GG\ 8G	.	.	.	4B-\	Bo	.	4B-\	Bo	.	4b-\	Bo	.	4b-\	Bo	.
8FF\J 8F	.	.	.	.	.	.	.	.	.	.	.	.	.	.	.
!!LO:PB:g=original
=25	=25	=25	=25	=25	=25	=25	=25	=25	=25	=25	=25	=25	=25	=25	=25
!	!	!	!	!	!	!	!	!	!	!	!	!	!	!	!LO:DY:a
4EE-/ 4E-	.	4.g/ 4.b- 4.ee-	f	(4.e-\	z goś-	.	(4.e-\	z goś-	.	(4.ee-\	z goś-	.	(4.ee-\	z goś-	f
4EE-/ 4E-	.	.	.	.	.	.	.	.	.	.	.	.	.	.	.
.	.	8f/ 8a- 8dd	.	8d\)	.	.	8d\)	.	.	8dd\)	.	.	8dd\)	.	.
4EE-/ 4E-	.	4g/ 4ee-	.	4e-\	-ciem	.	4e-\	-ciem	.	4ee-\	-ciem	.	4ee-\	-ciem	.
=26	=26	=26	=26	=26	=26	=26	=26	=26	=26	=26	=26	=26	=26	=26	=26
4BB-\ 4B-	.	8ff\L	.	2B-\	a-	.	(4f\	a-	.	(4ff\	a-	.	(4ff\	a-	.
.	.	8f\	.	.	.	.	.	.	.	.	.	.	.	.	.
4BB-\ 4B-	.	8dd\	.	.	.	.	4d\)	.	.	4dd\)	.	.	4dd\)	.	.
.	.	8f\	.	.	.	.	.	.	.	.	.	.	.	.	.
4BB-\ 4B-	.	8b-\	.	4B-\	-nioł	.	4B-\	-nioł	.	4b-\	-nioł	.	4b-\	-nioł	.
.	.	8f\J	.	.	.	.	.	.	.	.	.	.	.	.	.
=27	=27	=27	=27	=27	=27	=27	=27	=27	=27	=27	=27	=27	=27	=27	=27
[2.EE-/ [2.E-	.	8gg\L	.	2.E-\	w dom	.	2.e-\	w dom	.	(2b-\	w dom	.	2gg\	w dom	.
.	.	8g\	.	.	.	.	.	.	.	.	.	.	.	.	.
.	.	8b-\	.	.	.	.	.	.	.	.	.	.	.	.	.
.	.	8gg\	.	.	.	.	.	.	.	.	.	.	.	.	.
.	.	8ff\	.	.	.	.	.	.	.	4ff\	.	.	4ff\	ro-	.
.	.	8b-\J	.	.	.	.	.	.	.	.	.	.	.	.	.
=28	=28	=28	=28	=28	=28	=28	=28	=28	=28	=28	=28	=28	=28	=28	=28
4EE-/] 4E-]	.	8ee-\L	.	4E-\	ro-	.	4e-\	ro-	.	4ee-\)	ro-	.	(4ee-\	-dzin-	.
.	.	8g\	.	.	.	.	.	.	.	.	.	.	.	.	.
4EE-/ 4E-	.	8b-\	.	4E-\	-dzin-	.	4B-\	-dzin-	.	4b-\	-dzin-	.	4b-\)	.	.
.	.	8ee-\	.	.	.	.	.	.	.	.	.	.	.	.	.
4EE-/ 4E-	.	8ff\	.	4E-\	-ny	.	4G/	-ny	.	4g/	-ny	.	4g/	-ny	.
.	.	8b-\J	.	.	.	.	.	.	.	.	.	.	.	.	.
=29	=29	=29	=29	=29	=29	=29	=29	=29	=29	=29	=29	=29	=29	=29	=29
4.CC/ 4.C	.	2.e-/ 2.g 2.ee-	>]	2.c\	w dom	.	2.c\	w dom	.	2.ee-\	w dom	.	2.g/	w dom	.
8C\ 8c	.	.	.	.	.	.	.	.	.	.	.	.	.	.	.
4C\ 4c	.	.	.	.	.	.	.	.	.	.	.	.	.	.	.
=30	=30	=30	=30	=30	=30	=30	=30	=30	=30	=30	=30	=30	=30	=30	=30
*^	*	*^	*	*	*	*	*	*	*	*	*	*	*	*	*
*	*	*	*	*^	*	*	*	*	*	*	*	*	*	*	*	*	*
4B-/	2.BB-\	.	(4dd/	4d\	2.g/	p	4B-\	ro-	.	2.r	.	.	4dd\	ro-	.	4g/	ro-	.
4c/	.	.	4ee-/	4e-\	.	.	4c\	-dzin-	.	.	.	.	4ee-\	-dzin-	.	4g/	-dzin-	.
4B-/	.	.	4dd/	4d\	.	.	4B-\	-ny	.	.	.	.	4dd\	-ny	.	4g/	-ny	.
*v	*v	*	*	*	*	*	*	*	*	*	*	*	*	*	*	*	*	*
*	*	*	*v	*v	*	*	*	*	*	*	*	*	*	*	*	*	*
=31	=31	=31	=31	=31	=31	=31	=31	=31	=31	=31	=31	=31	=31	=31	=31	=31
2.AA-\ 2.A-	.	2.cc/)	4c\	.	2.A-\	wcho-	.	2.r	.	.	2.cc\	wcho-	.	2.e-/	wcho-	.
.	.	.	4e-\	.	.	.	.	.	.	.	.	.	.	.	.	.
.	.	.	4c\	.	.	.	.	.	.	.	.	.	.	.	.	.
*	*	*v	*v	*	*	*	*	*	*	*	*	*	*	*	*	*
=32	=32	=32	=32	=32	=32	=32	=32	=32	=32	=32	=32	=32	=32	=32	=32
2.GG\ 2.G	.	4B-/ 4b-	.	2G\	-dzi	.	4r	.	.	2b-\	-dzi	.	4e-/	-dzi	.
.	.	4e-/ 4ee-	.	.	.	.	4G/	Grze-	.	.	.	.	4ee-\	Grze-	.
.	.	4B-/ 4b-	.	4r	.	.	8G/L	-chy	.	4r	.	.	4b-\	-chy	.
.	.	.	.	.	.	.	8A-/J	.	.	.	.	.	.	.	.
!!LO:LB:g=original
=33	=33	=33	=33	=33	=33	=33	=33	=33	=33	=33	=33	=33	=33	=33	=33
*	*	*^	*	*	*	*	*	*	*	*	*	*	*	*	*
2.FF\ 2.F	.	2.a-/	(4.A-\	.	2F\	grze-	.	(4.A-\	grze-	.	2d/	grze-	.	2a-^>/	grze-	.
.	.	.	8B-\	.	.	.	.	8B-\)	.	.	.	.	.	.	.	.
.	.	.	4A-\)	.	4F\	-chy	.	4A-\	-chy	.	4d/	-chy	.	4a-/	-chy	.
=34	=34	=34	=34	=34	=34	=34	=34	=34	=34	=34	=34	=34	=34	=34	=34	=34
!	!	!	!	!	!	!	!LO:HP:a:t=cres.	!	!	!LO:HP:a:t=cres.	!	!	!LO:HP:a:t=cres.	!	!	!LO:HP:a:t=cres.
4EE-/ 4E-	.	4G/ 4g	[2.e-/	<	(4E-\	Bóg	<	2.G/	Bóg	<	(4e-/	Bóg	<	(4g/	Bóg	<
4FF/ 4F	.	4A-/ 4a-	.	.	4F\)	.	.	.	.	.	4d/)	.	.	4a-/)	.	.
4GG/ 4G	.	4B-/ 4b-	.	.	4D\	prze-	.	.	.	.	4r	.	.	4b-\	prze-	.
*	*	*v	*v	*	*	*	*	*	*	*	*	*	*	*	*	*
=35	=35	=35	=35	=35	=35	=35	=35	=35	=35	=35	=35	=35	=35	=35	=35
4AA-\ 4A-	.	4c/ 4e-] 4cc	.	(4E-\	-ba-	.	4r	.	.	4r	.	.	(4cc\	-ba-	.
4BBn\ 4Bn	.	4d/ 4dd	.	4BBn/	.	.	4G/	Bóg	.	4d/	Bog	.	4dd\)	.	.
4C\ 4c	.	4e-/ 4ee-	[	4C/)	.	.	4G/	prze-	.	4c/	prze-	.	4ee-\	-cza	.
=36	=36	=36	=36	=36	=36	=36	=36	=36	=36	=36	=36	=36	=36	=36	=36
*^	*	*	*	*	*	*	*	*	*	*	*	*	*	*	*
!	!	!	!	!	!	!	!	!	!	!	!	!	!	!	!	!LO:DY:a
4Bn/	4BBn\	.	4d/ 4dd	.	2G\	-cza	.	2Bn\	-ba-	.	2d/	-ba-	.	(4dd\	grze-	f
4G/	2GG\	.	4g/ 4gg	.	.	.	.	.	.	.	.	.	.	4gg\)	.	.
8An/L	.	.	4f/ 4ff	.	4r	.	.	4B\	-cza	.	4g/	-cza	.	4ff\	-chy	.
8B/J	.	.	.	.	.	.	.	.	.	.	.	.	.	.	.	.
*v	*v	*	*	*	*	*	*	*	*	*	*	*	*	*	*	*
=37	=37	=37	=37	=37	=37	=37	=37	=37	=37	=37	=37	=37	=37	=37	=37
2C\ 2c	.	4e-^/ 4ee-	.	4r	.	.	2G/	Bóg	.	(4.e-/	Bóg	.	2ee-\	Bóg	.
!	!	!	!	!	!	!LO:DY:a	!	!	!	!	!	!	!	!	!
.	.	4d^/ 4dd	.	4C/	Bóg	f	.	.	.	.	.	.	.	.	.
.	.	.	.	.	.	.	.	.	.	8d/)	.	.	.	.	.
4r	.	4c^/ 4cc	.	4C/	prze-	.	4G/	prze-	.	4c/	prze-	.	4ee-\	prze-	.
=38	=38	=38	=38	=38	=38	=38	=38	=38	=38	=38	=38	=38	=38	=38	=38
*^	*	*^	*	*	*	*	*	*	*	*	*	*	*	*	*
[2.B-X/	4BB-X\	.	4dd/	2.f\ 2.a-	.	(4BB-/	-ba-	.	2A-/	-ba-	.	2.f/	-ba-	.	(4dd^\	-ba-	.
.	4C\	.	4cc/	.	.	4C/	.	.	.	.	.	.	.	.	4cc\)	.	.
.	4D\	.	4b-/	.	.	4D/)	.	.	4A-/	-cza	.	.	.	.	4b-\	-cza	.
*v	*v	*	*	*	*	*	*	*	*	*	*	*	*	*	*	*	*
*	*	*v	*v	*	*	*	*	*	*	*	*	*	*	*	*	*
=39	=39	=39	=39	=39	=39	=39	=39	=39	=39	=39	=39	=39	=39	=39	=39
4E-\ 4B-]	.	4g\ 4ee-	.	4E-\	-cza	.	(4G\	Grze-	.	4e-/	-cza	.	(4ee-\	Grze-	.
!	!	!	!	!	!	!LO:DY:a	!	!	!	!	!	!	!	!	!
4E-\ 4e-	.	4a-/ 4cc	>	4E-\	Grze-	p	4e-\)	.	.	4cc\	Grze-	.	4cc\)	.	.
4E-\ 4e-	.	4g/ 4b-	]	4E-\	-chy	.	4e-\	-chy	.	4b-\	-chy	.	4b-\	-chy	.
=40	=40	=40	=40	=40	=40	=40	=40	=40	=40	=40	=40	=40	=40	=40	=40
4E-\ 4e-	.	4g\ 4ee-	.	2E-\	Bóg	.	2e-\	Bóg	.	(4g/	Bóg	.	(4ee-\	Bóg	.
4r	.	4r	.	.	.	.	.	.	.	4a-/)	.	.	4cc\)	.	.
4r	.	4r	.	4E-\	prze-	.	4e-\	prze-	.	4g/	prze-	.	4b-\	prze-	.
!!LO:LB:g=original
=41	=41	=41	=41	=41	=41	=41	=41	=41	=41	=41	=41	=41	=41	=41	=41
4E-^\ 4e-	.	4g^\ 4ee-	.	2.E-^\	-ba-	.	2.e-^\	-ba-	.	(4g^>/	-ba-	.	(4ee-^\	-ba-	.
4r	.	4r	.	.	.	.	.	.	.	4a-/	.	.	4cc\	.	.
4r	.	4r	.	.	.	.	.	.	.	4g/)	.	.	4b-\)	.	.
=42	=42	=42	=42	=42	=42	=42	=42	=42	=42	=42	=42	=42	=42	=42	=42
4E-^\ 4e-	.	4g^\ 4ee-	.	2E-\	-cza	.	2e-\	-cza	.	2g/	-cza	.	2ee-\	-cza	.
4r	.	4r	.	.	.	.	.	.	.	.	.	.	.	.	.
4r	.	4r	.	4r	.	.	4r	.	.	4r	.	.	4r	.	.
*clefG2	*	*	*	*	*	*	*	*	*	*	*	*	*	*	*
=43	=43	=43	=43	=43	=43	=43	=43	=43	=43	=43	=43	=43	=43	=43	=43
*	*	*^	*	*	*	*	*	*	*	*	*	*	*	*	*
!	!	!LO:TX:a:t=fl	!	!	!	!	!	!	!	!	!	!	!	!	!	!
(2.en/	.	(4gg/	2.cc\	.	2.r	.	.	2.r	.	.	2.r	.	.	2.r	.	.
.	.	4aa-/	.	.	.	.	.	.	.	.	.	.	.	.	.	.
.	.	4bb-/)	.	.	.	.	.	.	.	.	.	.	.	.	.	.
=44	=44	=44	=44	=44	=44	=44	=44	=44	=44	=44	=44	=44	=44	=44	=44	=44
2.f/)	.	(4bb-/	2cc\	.	2.r	.	.	2.r	.	.	2.r	.	.	2.r	.	.
.	.	4aa-/	.	.	.	.	.	.	.	.	.	.	.	.	.	.
.	.	4aa-/)	4r	.	.	.	.	.	.	.	.	.	.	.	.	.
=45	=45	=45	=45	=45	=45	=45	=45	=45	=45	=45	=45	=45	=45	=45	=45	=45
(2.f#X/	.	(4aan/	2.cc\ 2.ee-	.	2.r	.	.	2.r	.	.	2.r	.	.	2.r	.	.
.	.	4bbn/	.	.	.	.	.	.	.	.	.	.	.	.	.	.
.	.	4ccc/)	.	.	.	.	.	.	.	.	.	.	.	.	.	.
=46	=46	=46	=46	=46	=46	=46	=46	=46	=46	=46	=46	=46	=46	=46	=46	=46
2.g/)	.	(4ccc/	2.dd\	.	2.r	.	.	2.r	.	.	2.r	.	.	2.r	.	.
.	.	4bbn/	.	.	.	.	.	.	.	.	.	.	.	.	.	.
.	.	4bb/)	.	.	.	.	.	.	.	.	.	.	.	.	.	.
*clefF4	*	*	*	*	*	*	*	*	*	*	*	*	*	*	*	*
=47	=47	=47	=47	=47	=47	=47	=47	=47	=47	=47	=47	=47	=47	=47	=47	=47
!	!	!	!	!	!	!	!	!	!	!LO:DY:a	!	!	!	!	!	!LO:DY:a
4.GGG/ 4.GG	.	4dd/	2g\ 2bn	.	2.r	.	.	2G/	Grze-	f	2.r	.	.	4dd\	Grze-	f
.	.	4gg/	.	.	.	.	.	.	.	.	.	.	.	4gg\	-chy	.
8GGG/L 8GG	.	.	.	.	.	.	.	.	.	.	.	.	.	.	.	.
8AAAn/ 8AAn	.	4ff/	4g\ 4dd	.	.	.	.	4Bn/	-chy	.	.	.	.	4ff\	prze-	.
8BBBn/J 8BBn	.	.	.	.	.	.	.	.	.	.	.	.	.	.	.	.
=48	=48	=48	=48	=48	=48	=48	=48	=48	=48	=48	=48	=48	=48	=48	=48	=48
4CC/ 4C	.	4ee-/	2.g\	.	2.r	.	.	4c\	prze-	.	2.r	.	.	(4ee-\	-ba-	.
4DD/ 4D	.	4dd/	.	.	.	.	.	4d\	-ba-	.	.	.	.	4dd\)	.	.
4EE-/ 4E-	.	4cc/	.	.	.	.	.	4e-\	-cza	.	.	.	.	4cc\	-cza	.
*	*	*v	*v	*	*	*	*	*	*	*	*	*	*	*	*	*
=49	=49	=49	=49	=49	=49	=49	=49	=49	=49	=49	=49	=49	=49	=49	=49
!LO:TX:a:t=ten	!	!	!	!	!	!	!	!	!	!	!	!	!	!	!
2.BB-X/	.	[2.f/ [2.a- [2.dd	.	2B-\	Bóg	.	2f^\	Bóg!	.	4r	.	.	2.dd^\	Bóg!	.
.	.	.	.	.	.	.	.	.	.	4a-/	Bóg	.	.	.	.
.	.	.	.	4B-\	prze-	.	4B-\	Niech	.	4g/	prze-	.	.	.	.
!!LO:PB:g=original
=50	=50	=50	=50	=50	=50	=50	=50	=50	=50	=50	=50	=50	=50	=50	=50
*	*	*^	*	*	*	*	*	*	*	*	*	*	*	*	*
4BBB-/ 4BB-	.	4dd/]	2f\] 2a-]	.	4.BB-^>/	-ba-	.	2B-^\	ży-	.	2f^>/	-ba-	.	4.dd^\	Niech	.
4CC/ 4C	.	4cc/	.	.	.	.	.	.	.	.	.	.	.	.	.	.
.	.	.	.	.	8C/	.	.	.	.	.	.	.	.	8cc\	ży-	.
4DD/ 4D	.	4b-/	4ryy	.	4D\	-cza	.	4B-\	-je	.	4f/	-cza	.	4b-\	-je	.
*	*	*v	*v	*	*	*	*	*	*	*	*	*	*	*	*	*
=51	=51	=51	=51	=51	=51	=51	=51	=51	=51	=51	=51	=51	=51	=51	=51
!	!	!	!	!	!	!LO:DY:a	!	!	!LO:DY:a	!	!	!LO:DY:a	!	!	!LO:DY:a
8EE-/L	.	4.g\ 4.ee-	.	4E-\	Niech	f	4.e-\	Niech	f	4.g/	Niech	f	4.ee-\	Niech	f
8BB-/	.	.	.	.	.	.	.	.	.	.	.	.	.	.	.
8E-/	.	.	.	4E-\	ży-	.	.	.	.	.	.	.	.	.	.
8BB-/	.	8a-\ 8dd	.	.	.	.	8f\	ży-	.	8a-/	ży-	.	8dd\	ży-	.
8EE-/	.	4g\ 4ee-	.	4E-\	-je	.	4e-\	-je	.	4g/	-je	.	4ee-\	-je	.
8BB-/J	.	.	.	.	.	.	.	.	.	.	.	.	.	.	.
=52	=52	=52	=52	=52	=52	=52	=52	=52	=52	=52	=52	=52	=52	=52	=52
*	*	*^	*	*	*	*	*	*	*	*	*	*	*	*	*
8DD/L	.	4ff/	2f\ 2b-	.	2BB-/	wiecz-	.	(4d\	wiecz-	.	(4.f/	wiecz-	.	(4ff\	wiecz-	.
8BB-/	.	.	.	.	.	.	.	.	.	.	.	.	.	.	.	.
8D/	.	4dd/	.	.	.	.	.	4B-\)	.	.	.	.	.	4dd\)	.	.
8BB-/	.	.	.	.	.	.	.	.	.	.	8g/)	.	.	.	.	.
8DD/	.	4f/ 4b-	4ryy	.	4D/	-nie	.	4f\	-nie	.	4f/	-nie	.	4b-\	-nie	.
8BB-/J	.	.	.	.	.	.	.	.	.	.	.	.	.	.	.	.
*	*	*v	*v	*	*	*	*	*	*	*	*	*	*	*	*	*
=53	=53	=53	=53	=53	=53	=53	=53	=53	=53	=53	=53	=53	=53	=53	=53
8EE-/L	.	2g\ 2b- 2gg	.	2E-\	kto	.	2.e-\	wiecz-	.	(4g/	wiecz-	.	2gg\	kto	.
8BB-/	.	.	.	.	.	.	.	.	.	.	.	.	.	.	.
8E-/	.	.	.	.	.	.	.	.	.	4b-/	.	.	.	.	.
8BB-/	.	.	.	.	.	.	.	.	.	.	.	.	.	.	.
8EE-/	.	4g\ 4b- 4ee-	.	4E-\	nie-	.	.	.	.	4g/)	.	.	4ee-\	nie-	.
8BB-/J	.	.	.	.	.	.	.	.	.	.	.	.	.	.	.
=54	=54	=54	=54	=54	=54	=54	=54	=54	=54	=54	=54	=54	=54	=54	=54
8EE-/L	.	4e-/ 4g 4b-	.	(4G\	-do-	.	4e-\	-nie	.	4g/	-nie	.	(4b-/	-do-	.
8BB-/	.	.	.	.	.	.	.	.	.	.	.	.	.	.	.
8E-/	.	4B-/ 4d 4g	.	4B-\)	.	.	4r	.	.	4r	.	.	4g/)	.	.
8BB-/	.	.	.	.	.	.	.	.	.	.	.	.	.	.	.
8DD-X/	.	4G/ 4B- 4e-	.	4d-X\	-lę	.	4r	.	.	4r	.	.	4e-/	-lę	.
8BB-/J	.	.	.	.	.	.	.	.	.	.	.	.	.	.	.
=55	=55	=55	=55	=55	=55	=55	=55	=55	=55	=55	=55	=55	=55	=55	=55
*	*	*^	*	*	*	*	*	*	*	*	*	*	*	*	*
!	!	!	!	!	!	!	!	!	!	!	!	!	!	!	!	!LO:DY:a
2.CC/ 2.C	.	4.A-/ 4.a-	2.e-/	p	2c\	kto	.	2.r	.	.	2e-/	kto	.	2a-/	kto	p
.	.	8G/ 8g	.	.	.	.	.	.	.	.	.	.	.	.	.	.
!	!	!	!	!	!	!	!LO:DY:a	!	!	!	!	!	!	!	!	!
.	.	4A-/ 4a-	.	.	4c\	nie-	p	.	.	.	4e-/	nie-	.	4a-/	nie-	.
*	*	*v	*v	*	*	*	*	*	*	*	*	*	*	*	*	*
=56	=56	=56	=56	=56	=56	=56	=56	=56	=56	=56	=56	=56	=56	=56	=56
2.BBBn/ 2.BBn	.	4.G/ 4.g	.	2Bn\	-do-	.	2.r	.	.	2d/	-do-	.	2g/	-do-	.
.	.	8F#X/ 8f#X	.	.	.	.	.	.	.	.	.	.	.	.	.
.	.	4G/ 4g	.	4B\	-lę	.	.	.	.	4d/	-lę	.	4g/	-lę	.
=57	=57	=57	=57	=57	=57	=57	=57	=57	=57	=57	=57	=57	=57	=57	=57
4BBB-X/ 4BB-X	.	2G/ 2d-X 2en	.	2.B-X^\	sło-	.	2.r	.	.	2.d-X^>/	sło-	.	2.en^>/	sło-	.
4BB-\ 4B-	.	.	.	.	.	.	.	.	.	.	.	.	.	.	.
4BB-\ 4B-	.	4g\ 4dd-X 4een	.	.	.	.	.	.	.	.	.	.	.	.	.
=58	=58	=58	=58	=58	=58	=58	=58	=58	=58	=58	=58	=58	=58	=58	=58
4AA-^\ 4A-	.	4f\ 4cc 4ff	.	4A-\	-dzi	.	4r	.	.	4c/	-dzi	.	4f/	-dzi	.
4r	.	4c^>/ 4cc	.	4r	.	.	4r	.	.	4r	.	.	4r	.	.
!	!	!	!	!	!	!LO:DY:a	!	!	!LO:DY:a	!	!	!LO:DY:a	!	!	!LO:DY:a
4r	.	4c^>/ 4cc	.	4c\	Niech	f	4c\	Niech	f	4cc\	Niech	f	4cc\	Niech	f
!!LO:LB:g=original
=59	=59	=59	=59	=59	=59	=59	=59	=59	=59	=59	=59	=59	=59	=59	=59
2.FF/ 2.F	.	4.f\ 4.a- 4.ff	f	2F\	ży-	.	2c\	ży-	.	2a-/	ży-	.	2ff\	ży-	.
.	.	8b-\ 8een	.	.	.	.	.	.	.	.	.	.	.	.	.
.	.	4a-\ 4ff	.	4F\	-je	.	4c\	-je	.	4a-/	-je	.	4ff\	-je	.
=60	=60	=60	=60	=60	=60	=60	=60	=60	=60	=60	=60	=60	=60	=60	=60
2.EEn/ 2.En	.	4g\ 4cc 4gg	.	2c\	wiecz-	.	(4en\	wiecz-	.	2g/	wiecz-	.	(4gg\	wiecz-	.
.	.	4en/ 4een	.	.	.	.	4c\)	.	.	.	.	.	4een\)	.	.
.	.	4c/ 4cc	.	4c\	-nie	.	4c\	-nie	.	4en/	-nie	.	4cc\	-nie	.
=61	=61	=61	=61	=61	=61	=61	=61	=61	=61	=61	=61	=61	=61	=61	=61
2FF/ 2F	.	[2.a-\ [2.cc [2.aa-	.	[2.F\	kto	.	[2.c\	kto	.	4f/	kto	.	[2.aa-\	kto	.
.	.	.	.	.	.	.	.	.	.	4a-/	.	.	.	.	.
4FF^>/ 4AA- 4C	.	.	.	.	.	.	.	.	.	4cc\	nie-	.	.	.	.
=62	=62	=62	=62	=62	=62	=62	=62	=62	=62	=62	=62	=62	=62	=62	=62
4AA-^\ 4C 4F	.	2.a-\] 2.cc] 2.aa-]	.	2F\]	.	.	2c\]	.	.	2ff\	-do-	.	2aa-\]	.	.
4C^\ 4F 4A-	.	.	.	.	.	.	.	.	.	.	.	.	.	.	.
4F^\ 4A- 4c	.	.	.	4F\	nie-	.	4A-/	nie-	.	4f/	-lę	.	4ff\	nie-	.
=63	=63	=63	=63	=63	=63	=63	=63	=63	=63	=63	=63	=63	=63	=63	=63
*^	*	*^	*	*	*	*	*	*	*	*	*	*	*	*	*
*	*	*	*	*^	*	*	*	*	*	*	*	*	*	*	*	*	*
!	!	!	!	!	!	!	!	!	!LO:DY:a	!	!	!LO:DY:a	!	!	!LO:DY:a	!	!	!LO:DY:a
4.f/	2.F\	.	2.aa-/	2.a-\	4.dd-X/	p	2F\	-do-	p	(4.f\	-do-	p	2a-/	sło-	p	(4.dd-X\	-do-	p
8en/	.	.	.	.	8cc/	.	.	.	.	8en\)	.	.	.	.	.	8cc\)	.	.
4f/	.	.	.	.	4dd-/	.	4F\	-lę	.	4f\	-lę	.	4a-/	-dzi	.	4dd-\	-lę	.
*v	*v	*	*	*	*	*	*	*	*	*	*	*	*	*	*	*	*	*
*	*	*v	*v	*v	*	*	*	*	*	*	*	*	*	*	*	*	*
=64	=64	=64	=64	=64	=64	=64	=64	=64	=64	=64	=64	=64	=64	=64	=64
2.G\ 2.A-X 2.c 2.e-X	.	8r	.	2G-X\	sło-	.	2c\	sło-	.	2a-/	bra-	.	(4ee-\	sło-	.
.	.	(8a-\L	.	.	.	.	.	.	.	.	.	.	.	.	.
.	.	8cc\	.	.	.	.	.	.	.	.	.	.	4cc\)	.	.
.	.	8ee-\	.	.	.	.	.	.	.	.	.	.	.	.	.
.	.	8cc\	.	4G-\	-dzi	.	4c\	-dzi	.	4a-/	-ta	.	4a-X/	-dzi	.
.	.	8a-\J)	.	.	.	.	.	.	.	.	.	.	.	.	.
=65	=65	=65	=65	=65	=65	=65	=65	=65	=65	=65	=65	=65	=65	=65	=65
*	*	*^	*	*	*	*	*	*	*	*	*	*	*	*	*
2.F\ 2.A- 2.d-X 2.f	.	[2.aa-/	4r	.	2.F\	bra-	.	2d-X\	bra-	.	[2a-/	bra-	.	2dd-X\	bra-	.
.	.	.	8a-\L	.	.	.	.	.	.	.	.	.	.	.	.	.
.	.	.	8dd-X\	.	.	.	.	.	.	.	.	.	.	.	.	.
.	.	.	8ff\	.	.	.	.	(8d-\L	-ta	.	4a-/]	.	.	(8ff\L	-ta	.
.	.	.	8dd-\J	.	.	.	.	8e-\J)	.	.	.	.	.	8ee-\J)	.	.
=66	=66	=66	=66	=66	=66	=66	=66	=66	=66	=66	=66	=66	=66	=66	=66	=66
4r	.	2.aa-/]	8dd-X\L	.	4F\	-ta	.	(4f\	i	.	(4a-/	-ta	.	(4dd-X\	i	.
.	.	.	8a-\J	.	.	.	.	.	.	.	.	.	.	.	.	.
8f\L	.	.	4r	.	4r	.	.	4d-X\)	.	.	4f/)	.	.	4a-\)	.	.
8d-X\	.	.	.	.	.	.	.	.	.	.	.	.	.	.	.	.
8A-\	.	.	4r	.	4F\	tu-	.	4A-\	tu-	.	4d-X/	tu-	.	4f/	tu-	.
8F\J	.	.	.	.	.	.	.	.	.	.	.	.	.	.	.	.
*	*	*v	*v	*	*	*	*	*	*	*	*	*	*	*	*	*
!!LO:LB:g=original
=67	=67	=67	=67	=67	=67	=67	=67	=67	=67	=67	=67	=67	=67	=67	=67
!	!	!LO:TX:a:t=sostenuto	!LO:DY:a	!	!	!	!	!	!	!	!	!	!	!	!LO:DY:a
4.D-X\	.	2.F< 2.A-< 2.f/	p	2.D-X\	-ła-	.	2.A-/	-ła-	.	4f/	-ła-	.	2.f/	-ła-	p
.	.	.	.	.	.	.	.	.	.	4f/	-cza	.	.	.	.
8C\	.	.	.	.	.	.	.	.	.	.	.	.	.	.	.
4D-\	.	.	.	.	.	.	.	.	.	4r	.	.	.	.	.
=68	=68	=68	=68	=68	=68	=68	=68	=68	=68	=68	=68	=68	=68	=68	=68
4.C\	.	2.F< 2.A-< 2.f/	.	2C/	-cza	.	2A-/	-cza	.	2.r	.	.	2f/	-cza	.
8BBn\	.	.	.	.	.	.	.	.	.	.	.	.	.	.	.
4C\	.	.	.	4C/	tu-	.	4A-/	tu-	.	.	.	.	4f/	tu-	.
=69	=69	=69	=69	=69	=69	=69	=69	=69	=69	=69	=69	=69	=69	=69	=69
4.BBn\	.	2.F< 2.A-< 2.dn 2.f/	.	[2BBn/	-ła-	.	2.A-/	-ła-	.	2.r	.	.	2.f/	-ła-	.
8AA#X\	.	.	.	.	.	.	.	.	.	.	.	.	.	.	.
4BB\	.	.	.	4BB/]	.	.	.	.	.	.	.	.	.	.	.
=70	=70	=70	=70	=70	=70	=70	=70	=70	=70	=70	=70	=70	=70	=70	=70
4BB-X\	.	(8f\L	.	4BB-X/	-cza	.	4A-/	-cza	.	2.r	.	.	4f/	-cza	.
.	.	8a-\	<	.	.	.	.	.	.	.	.	.	.	.	.
4r	.	8ddn\	.	4r	.	.	4r	.	.	.	.	.	4r	.	.
.	.	8a-\	.	.	.	.	.	.	.	.	.	.	.	.	.
4r	.	8dd\	.	4r	.	.	4r	.	.	.	.	.	4r	.	.
.	.	8ff\J)	[	.	.	.	.	.	.	.	.	.	.	.	.
=71	=71	=71	=71	=71	=71	=71	=71	=71	=71	=71	=71	=71	=71	=71	=71
!	!	!	!	!	!	!LO:DY:a	!	!	!LO:DY:a	!	!	!LO:DY:a	!	!	!LO:DY:a
4.E-\	.	2.B-/ 2.e- 2.g-X	p	2E-\	kto	p	2B-\	kto	p	2e-/	kto	p	2g-X/	kto	p
8D\	.	.	.	.	.	.	.	.	.	.	.	.	.	.	.
4E-\	.	.	.	4E-\	nie-	.	4B-\	nie-	.	4e-/	nie-	.	4g-/	nie-	.
=72	=72	=72	=72	=72	=72	=72	=72	=72	=72	=72	=72	=72	=72	=72	=72
4.D-X\	.	2.G/ 2.Bn 2.f	.	2D-X\	-do-	.	(4B-/	-do-	.	2B-/	-do-	.	4f/	-do-	.
.	.	.	.	.	.	.	4G/)	.	.	.	.	.	4f/	.	.
8C\	.	.	.	.	.	.	.	.	.	.	.	.	.	.	.
4D-\	.	.	.	4D-\	-lę	.	4G/	-lę	.	4B-/	-lę	.	4f/	-lę	.
=73	=73	=73	=73	=73	=73	=73	=73	=73	=73	=73	=73	=73	=73	=73	=73
4.C/	.	2.G/ 2.B-X 2.en	.	2.C/	sło-	.	2.G/	sło-	.	2.B-/	sło-	.	2.en/	sło-	.
8BBn/	.	.	.	.	.	.	.	.	.	.	.	.	.	.	.
4C/	.	.	.	.	.	.	.	.	.	.	.	.	.	.	.
=74	=74	=74	=74	=74	=74	=74	=74	=74	=74	=74	=74	=74	=74	=74	=74
4CC/	.	(8g\L	<	4C/	-dzi	.	4G/	-dzi	.	4B-/	-dzi	.	4en/	-dzi	.
.	.	8b-\	.	.	.	.	.	.	.	.	.	.	.	.	.
4r	.	8een\	.	4r	.	.	4r	.	.	4r	.	.	4r	.	.
.	.	8b-\	.	.	.	.	.	.	.	.	.	.	.	.	.
4r	.	8ee\	.	4r	.	.	4r	.	.	4r	.	.	4r	.	.
.	.	8gg\J)	[	.	.	.	.	.	.	.	.	.	.	.	.
=75	=75	=75	=75	=75	=75	=75	=75	=75	=75	=75	=75	=75	=75	=75	=75
4.A-\	.	2.c^/ 2.f 2.cc	.	2.r	.	.	4r	.	.	4r	.	.	4r	.	.
.	.	.	.	.	.	.	4A-/	kto	.	4f/	kto	.	4cc\	kto	.
8G\	.	.	.	.	.	.	.	.	.	.	.	.	.	.	.
4A-\	.	.	.	.	.	.	4A-/	nie-	.	4f/	nie-	.	4cc\	nie-	.
!!LO:PB:g=original
=76	=76	=76	=76	=76	=76	=76	=76	=76	=76	=76	=76	=76	=76	=76	=76
4.G\	.	2.c/ 2.en 2.b- 2.cc	.	2.r	.	.	2G/	-do-	.	2en/	-do-	.	2cc\	-do-	.
8F#X\	.	.	.	.	.	.	.	.	.	.	.	.	.	.	.
4G\	.	.	.	.	.	.	4G/	-lę	.	4b-\	-lę	.	4cc\	-lę	.
=77	=77	=77	=77	=77	=77	=77	=77	=77	=77	=77	=77	=77	=77	=77	=77
!	!	!	!	!	!	!	!	!	!LO:DY:a	!	!	!LO:DY:a	!	!	!
4.Fn\	.	2.c/ 2.f 2.a- 2.cc	.	4r	.	.	2.F/	bra-	pp	2.a-/	bra-	pp	4r	.	.
!	!	!	!	!	!	!LO:DY:a	!	!	!	!	!	!	!	!	!LO:DY:a
.	.	.	.	4F\	kto	pp	.	.	.	.	.	.	4cc\	kto	pp
8En\	.	.	.	.	.	.	.	.	.	.	.	.	.	.	.
4F\	.	.	.	4F\	nie-	.	.	.	.	.	.	.	4cc\	nie	.
=78	=78	=78	=78	=78	=78	=78	=78	=78	=78	=78	=78	=78	=78	=78	=78
(2.F#X\	.	(8c\L	.	2F#X\	-do-	.	2.e-\	-ta	.	2.an/	-ta	.	2cc\	do-	.
.	.	8e-\	.	.	.	.	.	.	.	.	.	.	.	.	.
.	.	8an\	.	.	.	.	.	.	.	.	.	.	.	.	.
.	.	8cc\	.	.	.	.	.	.	.	.	.	.	.	.	.
.	.	8ee-\	.	4F#\	-lę	.	.	.	.	.	.	.	4cc\	-lę	.
.	.	8aan\J)	.	.	.	.	.	.	.	.	.	.	.	.	.
=79	=79	=79	=79	=79	=79	=79	=79	=79	=79	=79	=79	=79	=79	=79	=79
4G\)	.	8ccc'\L	.	2.G\	sło-	.	2.e-\	sło-	.	2.g/	sło-	.	2.cc\	sło-	.
.	.	8gg'\	.	.	.	.	.	.	.	.	.	.	.	.	.
4r	.	8ff'\	.	.	.	.	.	.	.	.	.	.	.	.	.
.	.	8ee-'\	.	.	.	.	.	.	.	.	.	.	.	.	.
4r	.	8dd'\	.	.	.	.	.	.	.	.	.	.	.	.	.
.	.	8cc'\J	.	.	.	.	.	.	.	.	.	.	.	.	.
=80	=80	=80	=80	=80	=80	=80	=80	=80	=80	=80	=80	=80	=80	=80	=80
2.GG^/ 2.G	.	8bn/L	.	2G\	-dzi	.	2d\	-dzi	.	2.g/	-dzi	.	2ddn\	-dzi	.
.	.	8a-/	.	.	.	.	.	.	.	.	.	.	.	.	.
.	.	8g/	.	.	.	.	.	.	.	.	.	.	.	.	.
.	.	8f/	.	.	.	.	.	.	.	.	.	.	.	.	.
.	.	8e-/	.	4r	.	.	4r	.	.	.	.	.	4r	.	.
.	.	8d/J	.	.	.	.	.	.	.	.	.	.	.	.	.
=81	=81	=81	=81	=81	=81	=81	=81	=81	=81	=81	=81	=81	=81	=81	=81
!	!	!	!	!	!	!LO:DY:a	!	!	!	!	!	!	!	!	!
4CC/ 4C	.	8c'\L	.	4.C/	Niech	f	2.r	.	.	2.r	.	.	2.r	.	.
.	.	8e-'\	.	.	.	.	.	.	.	.	.	.	.	.	.
4r	.	8g'\	.	.	.	.	.	.	.	.	.	.	.	.	.
.	.	8cc'\	.	8BBn/	ży-	.	.	.	.	.	.	.	.	.	.
4r	.	8ee-'\	.	4C/	-je	.	.	.	.	.	.	.	.	.	.
.	.	8cc'\J	.	.	.	.	.	.	.	.	.	.	.	.	.
=82	=82	=82	=82	=82	=82	=82	=82	=82	=82	=82	=82	=82	=82	=82	=82
4GGG/ 4GG	.	8bn'\L	.	(4D/	wiecz-	.	2.r	.	.	2.r	.	.	2.r	.	.
.	.	8g'\	.	.	.	.	.	.	.	.	.	.	.	.	.
4r	.	8b'\	.	4BBn/)	.	.	.	.	.	.	.	.	.	.	.
.	.	8dd'\	.	.	.	.	.	.	.	.	.	.	.	.	.
4r	.	8gg'\	.	4GG/	-nie	.	.	.	.	.	.	.	.	.	.
.	.	8ff'\J	.	.	.	.	.	.	.	.	.	.	.	.	.
!!LO:LB:g=original
=83	=83	=83	=83	=83	=83	=83	=83	=83	=83	=83	=83	=83	=83	=83	=83
!	!	!	!	!	!	!	!	!	!LO:DY:a	!	!	!	!	!	!
4CC/ 4C	.	8ee-'\L	.	2.C/	Niech	.	4.e-\	Niech	f	2.r	.	.	2.r	.	.
.	.	8cc'\	.	.	.	.	.	.	.	.	.	.	.	.	.
4r	.	8ee-'\	.	.	.	.	.	.	.	.	.	.	.	.	.
.	.	8cc'\	.	.	.	.	8d\	ży-	.	.	.	.	.	.	.
4r	.	8g'\	.	.	.	.	4e-\	-je	.	.	.	.	.	.	.
.	.	8cc'\J	.	.	.	.	.	.	.	.	.	.	.	.	.
=84	=84	=84	=84	=84	=84	=84	=84	=84	=84	=84	=84	=84	=84	=84	=84
4BBB-/ 4BB-	.	8dd'\L	.	2BB-X/	ży-	.	(4f\	wiecz-	.	2.r	.	.	2.r	.	.
.	.	8b-X'\	.	.	.	.	.	.	.	.	.	.	.	.	.
4r	.	8dd'\	.	.	.	.	4d\)	.	.	.	.	.	.	.	.
.	.	8ff'\	.	.	.	.	.	.	.	.	.	.	.	.	.
4r	.	8bb-'\	.	4D\	-je	.	4B-\	-nie	.	.	.	.	.	.	.
.	.	8aa-X'\J	.	.	.	.	.	.	.	.	.	.	.	.	.
=85	=85	=85	=85	=85	=85	=85	=85	=85	=85	=85	=85	=85	=85	=85	=85
!	!	!	!	!	!	!	!	!	!	!	!	!LO:DY:a	!	!	!
4EE-/ 4E-	.	8gg'\L	.	2E-\	ży-	.	2e-\	ży-	.	4.g/	Niech	f	2.r	.	.
.	.	8ff#X'\	.	.	.	.	.	.	.	.	.	.	.	.	.
4r	.	8gg'\	.	.	.	.	.	.	.	.	.	.	.	.	.
.	.	8ee-'\	.	.	.	.	.	.	.	8f#X/	ży-	.	.	.	.
4r	.	8b-'\	.	4E-\	-je	.	4G/	-je	.	4g/	-je	.	.	.	.
.	.	8g'\J	.	.	.	.	.	.	.	.	.	.	.	.	.
=86	=86	=86	=86	=86	=86	=86	=86	=86	=86	=86	=86	=86	=86	=86	=86
4DD/ 4D	.	8f#X'\L	.	2D\	wiecz-	.	2F#X/	wiecz-	.	(4an/	wiecz-	.	2.r	.	.
.	.	8an'\	.	.	.	.	.	.	.	.	.	.	.	.	.
4r	.	8dd'\	.	.	.	.	.	.	.	4f#X/)	.	.	.	.	.
.	.	8ff#X'\	.	.	.	.	.	.	.	.	.	.	.	.	.
4r	.	8aan'\	.	4D\	-nie	.	4F#/	-nie	.	4d/	-nie	.	.	.	.
.	.	8ff#'\J	.	.	.	.	.	.	.	.	.	.	.	.	.
=87	=87	=87	=87	=87	=87	=87	=87	=87	=87	=87	=87	=87	=87	=87	=87
!	!	!	!	!	!	!LO:DY:a	!	!	!LO:DY:a	!	!	!LO:DY:a	!	!	!
4GG/ 4G	.	8gg'\L	.	2GG/	kto	<	2G/	kto	<	2d/	kto	<	2b-/	kto	.
.	.	8b-'\	.	.	.	.	.	.	.	.	.	.	.	.	.
4r	.	8dd'\	.	.	.	.	.	.	.	.	.	.	.	.	.
.	.	8gg'\	.	.	.	.	.	.	.	.	.	.	.	.	.
4r	.	8bb-'\	.	4GG/	nie-	[	4G/	nie-	[	4d/	nie-	[	4b-/	nie-	.
.	.	8gg'\J	.	.	.	.	.	.	.	.	.	.	.	.	.
=88	=88	=88	=88	=88	=88	=88	=88	=88	=88	=88	=88	=88	=88	=88	=88
4BB-\ 4F 4A-X	.	8ffn'\L	<	2BB-/	-do-	.	2A-/	-do-	.	2fn/	-do-	.	(4dd\	-do-	.
.	.	8gg'\	.	.	.	.	.	.	.	.	.	.	.	.	.
4BB-\ 4F 4A-	.	8aa-X'\	.	.	.	.	.	.	.	.	.	.	4cc\)	.	.
.	.	8bb-'\	.	.	.	.	.	.	.	.	.	.	.	.	.
4BB-\ 4F 4A-	.	8ccc'\	.	4B-\	-lę	.	4f\	-lę	.	4a-X/	-lę	.	4b-\	-lę	.
.	.	8ddd'\J	[	.	.	.	.	.	.	.	.	.	.	.	.
=89	=89	=89	=89	=89	=89	=89	=89	=89	=89	=89	=89	=89	=89	=89	=89
!	!	!	!	!	!	!LO:DY:a	!	!	!LO:DY:a	!	!	!LO:DY:a	!	!	!LO:DY:a
4EE-/ 4E-	.	8eee-\L	f	2E-\	sło-	f	2e-\	sło-	f	2g/	sło-	f	2ee-\	sło-	f
.	.	8ggg\	.	.	.	.	.	.	.	.	.	.	.	.	.
4GG/ 4G	.	8eee-\	.	.	.	.	.	.	.	.	.	.	.	.	.
.	.	8bb-\	.	.	.	.	.	.	.	.	.	.	.	.	.
4EE-/ 4E-	.	8gg\	.	4E-\	-dzi	.	4e-\	-dzi	.	4b-/	-dzi	.	4ee-\	-dzi	.
.	.	8bb-\J	.	.	.	.	.	.	.	.	.	.	.	.	.
!!LO:LB:g=original
=90	=90	=90	=90	=90	=90	=90	=90	=90	=90	=90	=90	=90	=90	=90	=90
4BBB-/ 4BB-	.	8ddd\L	.	4BB-/	Niech	.	4d\	Niech	.	4f/	Neich	.	4ff\	Niech	.
.	.	8bb-\	.	.	.	.	.	.	.	.	.	.	.	.	.
4CC/ 4C	.	8fff\	.	4B-\	ży-	.	4d\	ży-	.	4dd\	ży-	.	4dd\	ży-	.
.	.	8bb-\	.	.	.	.	.	.	.	.	.	.	.	.	.
4DD/ 4D	.	8ddd\	.	4B-\	-je	.	4B-\	-je	.	4b-\	-je	.	4b-\	-je	.
.	.	8bb-\J	.	.	.	.	.	.	.	.	.	.	.	.	.
=91	=91	=91	=91	=91	=91	=91	=91	=91	=91	=91	=91	=91	=91	=91	=91
4EE-/ 4E-	.	8eee-\L	.	[2.E-^\	wiecz-	.	[2.e-^\	wiecz-	.	[2.b-^\	wiecz-	.	(2gg^<\	wiecz-	.
.	.	8bb-\	.	.	.	.	.	.	.	.	.	.	.	.	.
4GG\ 4G	.	8gg\	.	.	.	.	.	.	.	.	.	.	.	.	.
.	.	8ee-\	.	.	.	.	.	.	.	.	.	.	.	.	.
4BB-\ 4B-	.	8b-\	.	.	.	.	.	.	.	.	.	.	4ff\	.	.
.	.	8ee-\J	.	.	.	.	.	.	.	.	.	.	.	.	.
=92	=92	=92	=92	=92	=92	=92	=92	=92	=92	=92	=92	=92	=92	=92	=92
2E-\ 2e-	.	(8ee-\L	.	2E-\]	.	.	(4e-\]	.	.	2b-\]	.	.	4ee-\	.	.
.	.	8ee-\	.	.	.	.	.	.	.	.	.	.	.	.	.
.	.	8dd\	.	.	.	.	4B-\)	.	.	.	.	.	4b-\)	.	.
.	.	8ee-\	.	.	.	.	.	.	.	.	.	.	.	.	.
.	.	8qgg/	.	.	.	.	.	.	.	.	.	.	.	.	.
4D-X\ 4d-X	.	8ff\	.	4D\	-nie	.	4G/	-nie	.	4g/	-nie	.	4g/	-nie	.
.	.	8ee-\J)	.	.	.	.	.	.	.	.	.	.	.	.	.
=93	=93	=93	=93	=93	=93	=93	=93	=93	=93	=93	=93	=93	=93	=93	=93
!	!	!	!	!	!	!LO:DY:a	!	!	!LO:DY:a	!	!	!LO:DY:a	!	!	!LO:DY:a
2.C\ 2.c	.	(8aa-\L	p	2C\	kto	p	2c\	kto	p	2e-/	kto	p	2a-/	kto	p
.	.	8ee-\	.	.	.	.	.	.	.	.	.	.	.	.	.
.	.	8dd\	.	.	.	.	.	.	.	.	.	.	.	.	.
.	.	8ee-\	.	.	.	.	.	.	.	.	.	.	.	.	.
.	.	8ff\	.	4c\	nie-	.	4c\	nie-	.	4e-/	nie-	.	4a-/	nie-	.
.	.	8ee-\J)	.	.	.	.	.	.	.	.	.	.	.	.	.
=94	=94	=94	=94	=94	=94	=94	=94	=94	=94	=94	=94	=94	=94	=94	=94
2BB-\ 2B-	.	(8dd\L	.	2B-\	-do-	.	2d\	-do-	.	2f/	-do-	.	(4f/	-do-	.
.	.	8ff\	.	.	.	.	.	.	.	.	.	.	.	.	.
.	.	8b-\	.	.	.	.	.	.	.	.	.	.	4b-/)	.	.
.	.	8dd\	.	.	.	.	.	.	.	.	.	.	.	.	.
4BB-\ 4B-	.	8ff\	.	4B-\	-lę	.	4d\	-lę	.	4f/	-lę	.	4a-/	-lę	.
.	.	8bb-\J)	.	.	.	.	.	.	.	.	.	.	.	.	.
=95	=95	=95	=95	=95	=95	=95	=95	=95	=95	=95	=95	=95	=95	=95	=95
!LO:TX:a:t=ten	!	!	!	!	!	!	!	!	!	!	!	!	!	!	!
4.BB-\ 4.B-	.	(([2.b-\ 2.ff 2.aa-	.	2.BB-/	sło-	.	(4.d\	sło-	.	2.f/	sło-	.	2.a-/	sło-	.
8BB-/L	.	.	.	.	.	.	8c\	.	.	.	.	.	.	.	.
8C/	.	.	.	.	.	.	4B-\)	.	.	.	.	.	.	.	.
8D/J	.	.	.	.	.	.	.	.	.	.	.	.	.	.	.
=96	=96	=96	=96	=96	=96	=96	=96	=96	=96	=96	=96	=96	=96	=96	=96
8E-\L	.	2b-\])) 2ee- 2gg	.	2E-\	-dzi	.	2B-\	-dzi	.	2e-/	-dzi	.	2g/	-dzi	.
8D\	.	.	.	.	.	.	.	.	.	.	.	.	.	.	.
8E-\	.	.	.	.	.	.	.	.	.	.	.	.	.	.	.
8F\	.	.	.	.	.	.	.	.	.	.	.	.	.	.	.
8G\	.	4r	.	4r	.	.	4r	.	.	4r	.	.	4r	.	.
8E-\J	.	.	.	.	.	.	.	.	.	.	.	.	.	.	.
!!LO:PB:g=original
=97	=97	=97	=97	=97	=97	=97	=97	=97	=97	=97	=97	=97	=97	=97	=97
!	!	!	!	!	!	!LO:DY:a	!	!	!LO:DY:a	!	!	!LO:DY:a	!	!	!LO:DY:a
2C/	.	(8ee-/L	p	2.C/	Bra-	f	2c\	Bra-	f	2g/	Bra-	f	2ee-\	Bra-	f
.	.	8e-/	.	.	.	.	.	.	.	.	.	.	.	.	.
.	.	8g/	.	.	.	.	.	.	.	.	.	.	.	.	.
.	.	8cc/	.	.	.	.	.	.	.	.	.	.	.	.	.
(4c\	.	8ee-/	.	.	.	.	4c\	-ta	.	4g/	-ta	.	4ee-\	-ta	.
.	.	8e-/J)	.	.	.	.	.	.	.	.	.	.	.	.	.
=98	=98	=98	=98	=98	=98	=98	=98	=98	=98	=98	=98	=98	=98	=98	=98
4B-\	.	(8dd/L	.	4BB-/	-ta	.	(4d\	i	.	2g/	i	.	(4dd\	i	.
.	.	8d/	.	.	.	.	.	.	.	.	.	.	.	.	.
4c\	.	8ee-/	.	4r	.	.	4c\)	.	.	.	.	.	4ee-\)	.	.
.	.	8e-/	.	.	.	.	.	.	.	.	.	.	.	.	.
4B-\	.	8dd/	.	4BB-/	tu-	.	4B-\	tu-	.	4g/	tu-	.	4dd\	tu-	.
.	.	8d/)	.	.	.	.	.	.	.	.	.	.	.	.	.
=99	=99	=99	=99	=99	=99	=99	=99	=99	=99	=99	=99	=99	=99	=99	=99
2.A-\)	.	(8cc/	.	[2A-\	-ła-	.	(4c\	-ła-	.	2.e-/	-ła-	.	2cc\	-ła-	.
.	.	8c/	.	.	.	.	.	.	.	.	.	.	.	.	.
.	.	8e-/	.	.	.	.	4d\	.	.	.	.	.	.	.	.
.	.	8a-/	.	.	.	.	.	.	.	.	.	.	.	.	.
.	.	8cc/	.	4A-\]	.	.	4e-\)	.	.	.	.	.	4cc\	-cza	.
.	.	8c/J)	.	.	.	.	.	.	.	.	.	.	.	.	.
=100	=100	=100	=100	=100	=100	=100	=100	=100	=100	=100	=100	=100	=100	=100	=100
2.G\	.	(8b-/L	.	2.G\	-cza	.	(2e-\	-cza	.	2.e-/	-cza	.	4b-\	Bo	.
.	.	8e-/	.	.	.	.	.	.	.	.	.	.	.	.	.
.	.	8ee-/	.	.	.	.	.	.	.	.	.	.	(<4ee-\	z goś-	.
.	.	8e-/	.	.	.	.	.	.	.	.	.	.	.	.	.
.	.	8b-/	.	.	.	.	4G/)	.	.	.	.	.	4b-/	-ciem	.
.	.	8e-/J	.	.	.	.	.	.	.	.	.	.	.	.	.
=101	=101	=101	=101	=101	=101	=101	=101	=101	=101	=101	=101	=101	=101	=101	=101
2F\	.	8a-/L	.	2.F\	Bo	.	2.B-\	Bo	.	4d/	Bo	.	2a-/)	a-	.
.	.	8d/	.	.	.	.	.	.	.	.	.	.	.	.	.
.	.	8f/	.	.	.	.	.	.	.	4c/	z goś-	.	.	.	.
.	.	8a-/	.	.	.	.	.	.	.	.	.	.	.	.	.
4F\	.	8cc/	.	.	.	.	.	.	.	4d/	-ciem	.	4a-/	-nioł	.
.	.	8b-/J)	.	.	.	.	.	.	.	.	.	.	.	.	.
=102	=102	=102	=102	=102	=102	=102	=102	=102	=102	=102	=102	=102	=102	=102	=102
4E-\	.	8g/L	.	(4E-\	z goś-	.	2B-\	z goś-	.	(4e-/	a-	.	(4g/	w dom	.
.	.	8B-/	<	.	.	.	.	.	.	.	.	.	.	.	.
4F\	.	8a-/	.	4F\)	.	.	.	.	.	4d/)	.	.	4a-/)	.	.
.	.	8B-/	.	.	.	.	.	.	.	.	.	.	.	.	.
4D\	.	8b-/	.	4D\	-ciem	.	4d\	-ciem	.	4f/	-nioł	.	4b-/	ro-	.
.	.	8B-/J	[	.	.	.	.	.	.	.	.	.	.	.	.
!!LO:LB:g=original
=103	=103	=103	=103	=103	=103	=103	=103	=103	=103	=103	=103	=103	=103	=103	=103
*	*	*^	*	*	*	*	*	*	*	*	*	*	*	*	*
4E-\	.	4cc/	8cc\L	<	(4E-\	a-	.	(4c\	a-	.	(>4c/	w dom	.	(4cc\	-dzin-	.
.	.	.	8d\	.	.	.	.	.	.	.	.	.	.	.	.	.
4BBn/	.	4dd/	8dd\	.	4BBn/)	.	.	4A-\)	.	.	4d/)	.	.	4dd\)	.	.
.	.	.	8d\	.	.	.	.	.	.	.	.	.	.	.	.	.
4C\	.	4ee-/	8ee-\	.	4C/	-nioł	.	4G/	-nioł	.	4c/	ro-	.	4ee-\	-ny	.
.	.	.	8e-\J	[	.	.	.	.	.	.	.	.	.	.	.	.
=104	=104	=104	=104	=104	=104	=104	=104	=104	=104	=104	=104	=104	=104	=104	=104	=104
*^	*	*	*	*	*	*	*	*	*	*	*	*	*	*	*	*
[2.G/	4.GG\	.	4dd/	8dd\L	[ f	(4.G\	w dom	.	2Bn\	w dom	.	2d/	-dzin-	.	(4dd\	wcho-	.
.	.	.	.	8g\	.	.	.	.	.	.	.	.	.	.	.	.	.
.	.	.	4gg/	8gg\	.	.	.	.	.	.	.	.	.	.	4gg\)	.	.
.	8AAn\	.	.	8g\	.	8An\)	.	.	.	.	.	.	.	.	.	.	.
.	4BBn\	.	4ff/	8ff\	.	4Bn\	ro-	.	4d\	ro-	.	4g/	-ny	.	4ff\	-dzi	.
.	.	.	.	8g\J	.	.	.	.	.	.	.	.	.	.	.	.	.
=105	=105	=105	=105	=105	=105	=105	=105	=105	=105	=105	=105	=105	=105	=105	=105	=105	=105
2.G/]	4C\	.	4ee-/	8ee-\L	.	2c\	-dzin-	.	(4e-\	-dzin-	.	(2g/	wcho-	.	2ee-\	Grze-	.
.	.	.	.	8g\	.	.	.	.	.	.	.	.	.	.	.	.	.
.	4D\	.	4dd/	8dd\	.	.	.	.	4d\)	.	.	.	.	.	.	.	.
.	.	.	.	8g\	.	.	.	.	.	.	.	.	.	.	.	.	.
.	4E-\	.	4cc/	8cc\	.	4C/	-ny	.	4c\	-ny	.	4cc\)	.	.	4ee-\	-chy	.
.	.	.	.	8g\J	.	.	.	.	.	.	.	.	.	.	.	.	.
=106	=106	=106	=106	=106	=106	=106	=106	=106	=106	=106	=106	=106	=106	=106	=106	=106	=106
!	!	!	!	!	!	!	!	!	!	!	!	!	!	!	!	!	!LO:DY:a
2.A-X/	4BB-X\	.	4dd/	8dd\L	p	(4.BB-X/	wcho-	.	2A-/	wcho-	.	2.f/	-dzi	.	(4.dd\	Bóg	p
.	.	.	.	8f\	.	.	.	.	.	.	.	.	.	.	.	.	.
.	4C\	.	4cc/	8cc\	.	.	.	.	.	.	.	.	.	.	.	.	.
.	.	.	.	8f\	.	8C/)	.	.	.	.	.	.	.	.	8cc\)	.	.
.	4D\	.	4b-/	8b-\	.	4D/	-dzi	.	4A-/	-dzi	.	.	.	.	4b-\	prze-	.
.	.	.	.	8f\J	.	.	.	.	.	.	.	.	.	.	.	.	.
*v	*v	*	*	*	*	*	*	*	*	*	*	*	*	*	*	*	*
*	*	*v	*v	*	*	*	*	*	*	*	*	*	*	*	*	*
=107	=107	=107	=107	=107	=107	=107	=107	=107	=107	=107	=107	=107	=107	=107	=107
!	!	!	!	!	!	!	!	!	!	!	!	!	!	!	!LO:DY:a
4E-\	.	(8ee-\L	.	2E-\	Grze-	.	(4G/	Grze-	.	(4e-/	Grze-	.	(4ee-\	-ba-	f
.	.	8g\	.	.	.	.	.	.	.	.	.	.	.	.	.
4E-\ 4e-	.	8a-\	.	.	.	.	4e-\)	.	.	4a-X/)	.	.	4cc\)	.	.
.	.	8cc\J)	.	.	.	.	.	.	.	.	.	.	.	.	.
4E-\ 4e-	.	4g\ 4b-	.	4E-\	-chy	.	4e-\	-chy	.	4g/	-chy	.	4b-\	-cza	.
=108	=108	=108	=108	=108	=108	=108	=108	=108	=108	=108	=108	=108	=108	=108	=108
4E-\	>	(8ee-\L	.	2E-^\	Bóg	.	4e-\	Bóg	.	4g/	Bóg	.	4ee-\	Bóg	.
.	.	8g\	.	.	.	.	.	.	.	.	.	.	.	.	.
(4d\	.	8a-\	.	.	.	.	4d^\	mu	.	4a-X^>/	mu	.	4cc^\	mu	.
.	.	8cc\J)	.	.	.	.	.	.	.	.	.	.	.	.	.
4e-\)	]	4g\ 4b-	.	4E-\	prze-	.	4e-\	prze-	.	4g/	prze-	.	4b-\	prze-	.
!!LO:LB:g=original
=109	=109	=109	=109	=109	=109	=109	=109	=109	=109	=109	=109	=109	=109	=109	=109
4E-\	.	(8ee-\L	.	2.E-\	-ba-	.	2.e-\	-ba-	.	(4e-/	-ba-	.	(4ee-\	-ba-	.
.	.	8g\	.	.	.	.	.	.	.	.	.	.	.	.	.
(4d\	.	8a-\	.	.	.	.	.	.	.	4a-X^>/	.	.	4cc^\	.	.
.	.	8cc\J)	.	.	.	.	.	.	.	.	.	.	.	.	.
4e-\)	.	4g/ 4b-	.	.	.	.	.	.	.	4g/)	.	.	4b-\)	.	.
=110	=110	=110	=110	=110	=110	=110	=110	=110	=110	=110	=110	=110	=110	=110	=110
4E-\ 4e-	.	4g\ 4ee-	.	2E-\	-cza	.	2e-\	-cza	.	2g/	-cza	.	2ee-\	-cza	.
4r	.	4r	.	.	.	.	.	.	.	.	.	.	.	.	.
4r	.	4r	.	4r	.	.	4r	.	.	4r	.	.	4r	.	.
=111	=111	=111	=111	=111	=111	=111	=111	=111	=111	=111	=111	=111	=111	=111	=111
4Bn\	.	4d/ 4f 4g	.	2.r	.	.	4r	.	.	2g/	Bóg	.	2.r	.	.
!	!	!	!	!	!	!	!	!	!LO:DY:a	!	!	!	!	!	!
4r	.	4r	.	.	.	.	4G/	Bóg	mf	.	.	.	.	.	.
4r	.	4r	.	.	.	.	4f\	prze-	.	(8an/L	prze-	.	.	.	.
.	.	.	.	.	.	.	.	.	.	8bn/J)	.	.	.	.	.
=112	=112	=112	=112	=112	=112	=112	=112	=112	=112	=112	=112	=112	=112	=112	=112
4c\	.	4e-/ 4g 4cc	.	2.r	.	.	(4e-\	-ba-	.	(4cc\	-ba-	.	2.r	.	.
4r	.	4r	.	.	.	.	4d\	.	.	4dd\	.	.	.	.	.
4r	.	4r	.	.	.	.	4c\)	.	.	4ee-\)	.	.	.	.	.
=113	=113	=113	=113	=113	=113	=113	=113	=113	=113	=113	=113	=113	=113	=113	=113
4GG/ 4G	.	4d/ 4g 4bn 4dd	sf	4r	.	.	2Bn\	-cza	.	2.g/	-cza	.	(4dd\	Grze-	.
4r	.	4r	.	(4G\	Grze-	.	.	.	.	.	.	.	4gg\)	.	.
4r	.	4r	.	8An\L	-chy	.	4r	.	.	.	.	.	4ff\	-chy	.
.	.	.	.	8Bn\J)	.	.	.	.	.	.	.	.	.	.	.
=114	=114	=114	=114	=114	=114	=114	=114	=114	=114	=114	=114	=114	=114	=114	=114
4C\ 4c	.	4e-\ 4g 4cc 4ee-	.	2c\	Bóg	.	4r	.	.	2g/	Bóg	.	(4ee-\	Bóg	.
4r	.	8dd\L	.	.	.	.	4r	.	.	.	.	.	4dd\)	.	.
.	.	8ee-\	.	.	.	.	.	.	.	.	.	.	.	.	.
4AAn^\ 4E- 4F#X 4An	.	8ff\	.	4An\	prze-	.	4c\	prze-	.	4f#X/	prze-	.	4ee-^\	prze-	.
.	.	8ee-\J	.	.	.	.	.	.	.	.	.	.	.	.	.
=115	=115	=115	=115	=115	=115	=115	=115	=115	=115	=115	=115	=115	=115	=115	=115
4BB-\ 4E- 4G 4B-	.	4g\ 4b- 4ee- 4gg	sf	2.B-X\	-ba-	.	2.e-\	-ba-	.	2.g/	-ba-	.	2.gg\	-ba-	.
8A-X\L	.	8B-/L	<	.	.	.	.	.	.	.	.	.	.	.	.
8G\	.	8c/	.	.	.	.	.	.	.	.	.	.	.	.	.
8F\	.	8d/	.	.	.	.	.	.	.	.	.	.	.	.	.
8E-\J	.	8e-/J	[	.	.	.	.	.	.	.	.	.	.	.	.
!!LO:PB:g=original
=116	=116	=116	=116	=116	=116	=116	=116	=116	=116	=116	=116	=116	=116	=116	=116
8D/L	.	8f/L	<	2B-\	-cza!	.	2d\	-cza!	.	2b-\	-cza!	.	2ff\	-cza!	.
8C/	.	8g/	.	.	.	.	.	.	.	.	.	.	.	.	.
8BB-/	.	8a-/	.	.	.	.	.	.	.	.	.	.	.	.	.
8AA-/	.	8b-/	.	.	.	.	.	.	.	.	.	.	.	.	.
8GG/	.	8cc/	.	4B-\	O-	.	4B-\	O-	.	4b-\	O-	.	4b-\	O-	.
8FF/J	.	8dd/J	[	.	.	.	.	.	.	.	.	.	.	.	.
=117	=117	=117	=117	=117	=117	=117	=117	=117	=117	=117	=117	=117	=117	=117	=117
!	!	!LO:TX:a:t=Più mosso.	!	!	!	!LO:DY:a	!	!	!LO:DY:a	!	!	!LO:DY:a	!LO:TX:a:t=Più mosso.	!	!LO:DY:a
4.EE-/ 4.E-	.	4.g\ 4.b- 4.ee-	f f	(4.E-\	-fia-	f	(4.e-\	-fia-	f	(4.g/	-fia-	f	(4.ee-\	-fia-	f
!	!	!LO:TX:b:t=marcato	!	!	!	!	!	!	!	!	!	!	!	!	!
8FF/ 8F	.	8a-\ 8cc 8dd	.	8F\)	.	.	8f\)	.	.	8a-/)	.	.	8dd\)	.	.
4GG/ 4G	.	4e-\ 4b- 4ee-	.	4G\	-rę	.	4e-\	-rę	.	4b-\	-rę	.	4ee-\	-rę	.
=118	=118	=118	=118	=118	=118	=118	=118	=118	=118	=118	=118	=118	=118	=118	=118
4AA-\ 4A-	.	4f\ 4ff	.	(4A-\	du-	.	(4f\	du-	.	(4cc\	du-	.	(4ff\	du-	.
4GG\ 4G	.	4bn\ 4dd	.	4G\)	.	.	4g\)	.	.	4bn\)	.	.	4dd\)	.	.
4BBn\ 4Bn	.	4g\ 4dd 4gg	.	4Bn^\	-szy	.	4d^\	-szy	.	4a-^>/	-szy	.	4gg^\	-szy	.
=119	=119	=119	=119	=119	=119	=119	=119	=119	=119	=119	=119	=119	=119	=119	=119
2C\ 2c	.	2cc\ 2ee-	.	(2c\	skarb	.	(2e-\	skarb	.	[2cc\	skarb	.	(2ee-\	skarb	.
(8F\L	.	(8cc\L 8aa-	.	8F\)	.	.	8f\)	.	.	8cc\]	.	.	8aa-\)	.	.
8A-\J)	.	8a-\J) 8ff	.	8A-\	na-	.	8f\	na-	.	8a-/	na-	.	8ff\	na-	.
=120	=120	=120	=120	=120	=120	=120	=120	=120	=120	=120	=120	=120	=120	=120	=120
4BB-X\ 4B-X	.	4f/ 4dd	.	2.Bn\	-gro-	.	2.f\	-gro-	.	2.a-/	-gro-	.	2.dd\	-gro-	.
4BB-\ 4B-	.	4f/ 4dd	.	.	.	.	.	.	.	.	.	.	.	.	.
4BB-\ 4B-	.	4f/ 4dd	.	.	.	.	.	.	.	.	.	.	.	.	.
=121	=121	=121	=121	=121	=121	=121	=121	=121	=121	=121	=121	=121	=121	=121	=121
4.EE-/ 4.E-	.	4.g\ 4.b- 4.ee-	.	2E-\	-dzi	.	2e-\	-dzi	.	2g\	-dzi	.	2ee-\	-dzi	.
8FF/ 8F	.	8a-\ 8cc 8dd	.	.	.	.	.	.	.	.	.	.	.	.	.
4GG/ 4G	.	4e-\ 4b- 4ee-	.	4r	.	.	4r	.	.	4r	.	.	4r	.	.
=122	=122	=122	=122	=122	=122	=122	=122	=122	=122	=122	=122	=122	=122	=122	=122
4AA-\ 4A-	.	4.f\ 4.ff	.	2.r	.	.	2.r	.	.	2.r	.	.	2.r	.	.
4GG\ 4G	.	.	.	.	.	.	.	.	.	.	.	.	.	.	.
.	.	8bn\ 8dd	.	.	.	.	.	.	.	.	.	.	.	.	.
4BBn\ 4Bn	.	4g\ 4dd 4gg	.	.	.	.	.	.	.	.	.	.	.	.	.
!!LO:LB:g=original
=123	=123	=123	=123	=123	=123	=123	=123	=123	=123	=123	=123	=123	=123	=123	=123
*^	*	*	*	*	*	*	*	*	*	*	*	*	*	*	*
8c/L	2C\	.	2cc\ 2ee-	.	2c\	Ludz-	.	2c\	Ludz-	.	2cc\	Ludz-	.	2ee-\	Ludz-	.
8B-X/	.	.	.	.	.	.	.	.	.	.	.	.	.	.	.	.
8A-/	.	.	.	.	.	.	.	.	.	.	.	.	.	.	.	.
8G/J	.	.	.	.	.	.	.	.	.	.	.	.	.	.	.	.
8F/L	8F\L	.	8cc\L 8aa-	.	(8F\L	-ka	.	4f\	-ka	.	(8cc\L	-ka	.	(8aa-\L	-ka	.
8A-/J	8A-\J	.	8a-\J 8ff	.	8A-\J)	.	.	.	.	.	8a-\J)	.	.	8ff\J)	.	.
*v	*v	*	*	*	*	*	*	*	*	*	*	*	*	*	*	*
=124	=124	=124	=124	=124	=124	=124	=124	=124	=124	=124	=124	=124	=124	=124	=124
4BB-\ 4B-	.	8f\ 8dd	.	4B-\	cześć	.	2f^\	cześć	.	2a-^>/	cześć	.	2dd^\	cześć	.
.	.	4f\ 4dd	.	.	.	.	.	.	.	.	.	.	.	.	.
4BB-\ 4B-	.	.	.	4BB-/	.	.	.	.	.	.	.	.	.	.	.
.	.	4f\ 4dd	.	.	.	.	.	.	.	.	.	.	.	.	.
4BB-\ 4B-	.	.	.	4BB-/	o-	.	4f\	o-	.	4a-/	o-	.	4dd\	o-	.
.	.	8f\ 8dd	.	.	.	.	.	.	.	.	.	.	.	.	.
=125	=125	=125	=125	=125	=125	=125	=125	=125	=125	=125	=125	=125	=125	=125	=125
4EE-/ 4E-	.	8g\ 8ee-	.	2.E-\	-ta-	.	2.B-\	-ta-	.	2.a-/	-ta-	.	2.ee-\	-ta-	.
.	.	4g\ 4ee-	.	.	.	.	.	.	.	.	.	.	.	.	.
4EE-/ 4E-	.	.	.	.	.	.	.	.	.	.	.	.	.	.	.
!	!	!	!LO:HP:t=cres-cen-do.:dur=13q:ext=cd	!	!	!	!	!	!	!	!	!	!	!	!
.	.	4g\ 4ee-	<	.	.	.	.	.	.	.	.	.	.	.	.
4EE-/ 4E-	.	.	.	.	.	.	.	.	.	.	.	.	.	.	.
.	.	8g\ 8ee-	.	.	.	.	.	.	.	.	.	.	.	.	.
=126	=126	=126	=126	=126	=126	=126	=126	=126	=126	=126	=126	=126	=126	=126	=126
!	!	!	!	!	!	!LO:DY:a	!	!	!LO:DY:a	!	!	!LO:DY:a	!	!	!LO:DY:a
4EE-/ 4E-	.	8f/ 8a- 8dd	.	2.E-\	-cza;	p	2.c-X\	-cza;	p	2.a-/	-cza;	p	2.dd\	-cza;	p
.	.	4f/ 4a- 4dd	.	.	.	.	.	.	.	.	.	.	.	.	.
4EE-/ 4E-	.	.	.	.	.	.	.	.	.	.	.	.	.	.	.
.	.	4f/ 4a- 4dd	.	.	.	.	.	.	.	.	.	.	.	.	.
4EE-/ 4E-	.	.	.	.	.	.	.	.	.	.	.	.	.	.	.
.	.	8f/ 8a- 8dd	.	.	.	.	.	.	.	.	.	.	.	.	.
=127	=127	=127	=127	=127	=127	=127	=127	=127	=127	=127	=127	=127	=127	=127	=127
!	!	!	!	!	!	!LO:HP:a:t=cres.	!	!	!LO:HP:a:t=cres.	!	!	!LO:HP:a:t=cres.	!	!	!LO:HP:a:t=cres.
4EE-/ 4E-	.	8e-/ 8g 8b- 8dd-X	.	2.E-\	Lecz	<	2.B-\	Lecz	<	2.g/	Lecz	<	2.dd-X\	Lecz	<
.	.	4e-/ 4g 4b- 4dd-	.	.	.	.	.	.	.	.	.	.	.	.	.
4EE-/ 4E-	.	.	.	.	.	.	.	.	.	.	.	.	.	.	.
.	.	4e-/ 4g 4b- 4dd-	.	.	.	.	.	.	.	.	.	.	.	.	.
4EE-/ 4E-	.	.	.	.	.	.	.	.	.	.	.	.	.	.	.
.	.	8e-/ 8g 8b- 8dd-	.	.	.	.	.	.	.	.	.	.	.	.	.
=128	=128	=128	=128	=128	=128	=128	=128	=128	=128	=128	=128	=128	=128	=128	=128
4EE-/ 4E-	.	8e-/ 8a- 8cc	.	2E-\	gdy	.	2A-X\	gdy	.	2e-/	gdy	.	2cc\	gdy	.
.	.	4e-/ 4a- 4cc	.	.	.	.	.	.	.	.	.	.	.	.	.
4EE-/ 4E-	.	.	.	.	.	.	.	.	.	.	.	.	.	.	.
.	.	4e-/ 4a- 4cc	.	.	.	.	.	.	.	.	.	.	.	.	.
4EE-/ 4E-	.	.	.	4E-\	ze	.	4c\	ze	.	4e-/	ze	.	4cc\	ze	.
.	.	8e-/ 8a- 8cc	.	.	.	.	.	.	.	.	.	.	.	.	.
=129	=129	=129	=129	=129	=129	=129	=129	=129	=129	=129	=129	=129	=129	=129	=129
4EE-/ 4E-	.	8f/ 8a- 8bn	.	2E-\	łza-	.	2f\	łza-	.	2a-X/	łza-	.	2bn\	łza-	.
.	.	4f/ 4a- 4b	.	.	.	.	.	.	.	.	.	.	.	.	.
4EE-/ 4E-	.	.	.	.	.	.	.	.	.	.	.	.	.	.	.
.	.	4f/ 4a- 4b	.	.	.	.	.	.	.	.	.	.	.	.	.
4EE-/ 4E-	.	.	.	4E-\	-mi	.	4f\	-mi	.	4a-/	-mi	.	4b\	-mi	.
.	.	8f/ 8a- 8b	.	.	.	.	.	.	.	.	.	.	.	.	.
!!LO:LB:g=original
=130	=130	=130	=130	=130	=130	=130	=130	=130	=130	=130	=130	=130	=130	=130	=130
16EEn/LL	.	4en/ 4g#X 4bn	.	2En\	tu-	.	2en\	tu-	.	2a-\	tu-	.	2bn\	tu-	.
16En/	.	.	.	.	.	.	.	.	.	.	.	.	.	.	.
16EE/	.	.	.	.	.	.	.	.	.	.	.	.	.	.	.
16E/JJ	.	.	.	.	.	.	.	.	.	.	.	.	.	.	.
16EE/LL	.	4bb-\	.	.	.	.	.	.	.	.	.	.	.	.	.
16E/	.	.	.	.	.	.	.	.	.	.	.	.	.	.	.
16EE/	.	.	.	.	.	.	.	.	.	.	.	.	.	.	.
16E/JJ	.	.	.	.	.	.	.	.	.	.	.	.	.	.	.
16EE/LL	.	4gg#X\	.	4E\	-łacz	.	4e\	-łacz	.	4a-/	-łacz	.	4gg#X\	-łacz	.
16E/	.	.	.	.	.	.	.	.	.	.	.	.	.	.	.
16EE/	.	.	.	.	.	.	.	.	.	.	.	.	.	.	.
16E/JJ	.	.	.	.	.	.	.	.	.	.	.	.	.	.	.
=131	=131	=131	=131	=131	=131	=131	=131	=131	=131	=131	=131	=131	=131	=131	=131
16EEn/LL	.	4een\	.	[4En\	brat	.	2en\	brat	.	2a-X/	brat	.	(4een\	brat	.
16En/	.	.	.	.	.	.	.	.	.	.	.	.	.	.	.
16EE/	.	.	.	.	.	.	.	.	.	.	.	.	.	.	.
16E/JJ	.	.	.	.	.	.	.	.	.	.	.	.	.	.	.
16EE/LL	.	4bn\	.	4E\]	.	.	.	.	.	.	.	.	4bn\)	.	.
16E/	.	.	.	.	.	.	.	.	.	.	.	.	.	.	.
16EE/	.	.	.	.	.	.	.	.	.	.	.	.	.	.	.
16E/JJ	.	.	.	.	.	.	.	.	.	.	.	.	.	.	.
16EE/LL	.	4g#X/	.	4E\	od-	.	4e\	od-	.	4a-/	od	.	4g#X/	od-	.
16E/	.	.	.	.	.	.	.	.	.	.	.	.	.	.	.
16EE/	.	.	.	.	.	.	.	.	.	.	.	.	.	.	.
16E/JJ	.	.	.	.	.	.	.	.	.	.	.	.	.	.	.
=132	=132	=132	=132	=132	=132	=132	=132	=132	=132	=132	=132	=132	=132	=132	=132
16EEn/LL	.	4en/	.	(2En\	-cho-	.	2.G#X/	-cho-	.	2.a-X/	cho-	.	[2en/	-cho-	.
16En/	.	.	.	.	.	.	.	.	.	.	.	.	.	.	.
16EE/	.	.	.	.	.	.	.	.	.	.	.	.	.	.	.
16E/JJ	.	.	.	.	.	.	.	.	.	.	.	.	.	.	.
16EE/LL	.	4e/	.	.	.	.	.	.	.	.	.	.	.	.	.
16E/	.	.	.	.	.	.	.	.	.	.	.	.	.	.	.
16EE/	.	.	.	.	.	.	.	.	.	.	.	.	.	.	.
16E/JJ	.	.	.	.	.	.	.	.	.	.	.	.	.	.	.
16DD#X/LL	.	4d#X/	.	4D#X\)	.	.	.	.	.	.	.	.	4e/]	.	.
16D#X/	.	.	.	.	.	.	.	.	.	.	.	.	.	.	.
16DD#/	.	.	.	.	.	.	.	.	.	.	.	.	.	.	.
16D#/JJ	.	.	.	.	.	.	.	.	.	.	.	.	.	.	.
=133	=133	=133	=133	=133	=133	=133	=133	=133	=133	=133	=133	=133	=133	=133	=133
4DDn/ 4Dn	.	4dn/	.	2Dn\	-dzi,	.	2G#X/	-dzi,	.	[2.a-X/	-dzi	.	[2.fn/	-dzi,	.
4D^\ 4d	.	4g#X\ 4bn 4ff 4gg#X	.	.	.	.	.	.	.	.	.	.	.	.	.
4D-X^\ 4d-X	.	4g#X\ 4b 4ff 4gg#	.	4r	.	.	4r	.	.	.	.	.	.	.	.
=134	=134	=134	=134	=134	=134	=134	=134	=134	=134	=134	=134	=134	=134	=134	=134
4C\ 4c	.	4g#X\ 4cc 4ff 4gg#X	.	2.r	.	.	2.r	.	.	2.a-X/]	.	.	2.fn/]	.	.
4C-X\ 4c-X	.	4g#X\ 4cc 4ff 4gg#X	.	.	.	.	.	.	.	.	.	.	.	.	.
4BB-X\ 4B-X	.	4g#X\ 4cc 4ff 4gg#X	.	.	.	.	.	.	.	.	.	.	.	.	.
!!LO:PB:g=original
=135	=135	=135	=135	=135	=135	=135	=135	=135	=135	=135	=135	=135	=135	=135	=135
4AAn^\ 4An	.	4an\ 4dd 4ff 4aan	.	2.r	.	.	2.r	.	.	2.r	.	.	2.r	.	.
4AA-X^\ 4A-X	.	4b-\ 4dd 4ff 4bb-	.	.	.	.	.	.	.	.	.	.	.	.	.
4GG^\ 4G	.	4bn\ 4dd 4ff 4bbn	.	.	.	.	.	.	.	.	.	.	.	.	.
=136	=136	=136	=136	=136	=136	=136	=136	=136	=136	=136	=136	=136	=136	=136	=136
4FF#X^>/ 4F#X	.	4bn\ 4dd#X 4ff#X 4bbn	.	2.r	.	.	2.r	.	.	2.r	.	.	2.r	.	.
4FFn^>/ 4Fn	.	4ddn\ 4bb-X	.	.	.	.	.	.	.	.	.	.	.	.	.
4DD^>/ 4D	.	4dd\ 4ffn 4aa-X	.	.	.	.	.	.	.	.	.	.	.	.	.
=137	=137	=137	=137	=137	=137	=137	=137	=137	=137	=137	=137	=137	=137	=137	=137
4EE-^>/ 4E-	.	4b-\ 4ee-X 4ggn	.	4r	.	.	4r	.	.	4r	.	.	4r	.	.
!	!	!	!	!	!	!LO:DY:a	!	!	!LO:DY:a	!	!	!LO:DY:a	!	!	!LO:DY:a
4GG^>/ 4G	.	16eee-\LL	.	4G\	Hań-	f	4e-\	Hań-	f	4ee-\	Hań-	f	4ee-\	Hań-	f
.	.	16ee-\	.	.	.	.	.	.	.	.	.	.	.	.	.
.	.	16eee-\	.	.	.	.	.	.	.	.	.	.	.	.	.
.	.	16ee-\JJ	.	.	.	.	.	.	.	.	.	.	.	.	.
4AA-X^>/ 4A-X	.	16eee-\LL	.	4A-X\	-bą	.	4e-\	-bą	.	4ee-\	-bą	.	4ee-\	-bą	.
.	.	16ee-\	.	.	.	.	.	.	.	.	.	.	.	.	.
.	.	16eee-\	.	.	.	.	.	.	.	.	.	.	.	.	.
.	.	16ee-\JJ	.	.	.	.	.	.	.	.	.	.	.	.	.
=138	=138	=138	=138	=138	=138	=138	=138	=138	=138	=138	=138	=138	=138	=138	=138
4AAn\ 4An	.	16eee-\LL	.	(4An\	hań-	<	[2.e-\	go	<	[2.ee-\	go	<	[2.ee-\	go	<
.	.	16ee-\	.	.	.	.	.	.	.	.	.	.	.	.	.
.	.	16eee-\	.	.	.	.	.	.	.	.	.	.	.	.	.
.	.	16ee-\JJ	.	.	.	.	.	.	.	.	.	.	.	.	.
4BB-X\ 4B-X	.	16eee-\LL	.	4B-\)	.	.	.	.	.	.	.	.	.	.	.
.	.	16ee-\	<	.	.	.	.	.	.	.	.	.	.	.	.
.	.	16eee-\	.	.	.	.	.	.	.	.	.	.	.	.	.
.	.	16ee-\JJ	.	.	.	.	.	.	.	.	.	.	.	.	.
4C\ 4c	.	16eee-\LL	.	4c\	-bą	.	.	.	.	.	.	.	.	.	.
.	.	16ee-\	.	.	.	.	.	.	.	.	.	.	.	.	.
.	.	16eee-\	.	.	.	.	.	.	.	.	.	.	.	.	.
.	.	16ee-\JJ	.	.	.	.	.	.	.	.	.	.	.	.	.
=139	=139	=139	=139	=139	=139	=139	=139	=139	=139	=139	=139	=139	=139	=139	=139
4BB-\ 4B-	.	8eee-\	.	4B-\	go	.	4e-\]	.	.	4ee-\]	.	.	4ee-\]	.	.
.	.	16d\LL	.	.	.	.	.	.	.	.	.	.	.	.	.
.	.	16dd\JJ	.	.	.	.	.	.	.	.	.	.	.	.	.
4r	.	16e-\LL	.	4r	.	.	4r	.	.	4r	.	.	4r	.	.
.	.	16ee-\	.	.	.	.	.	.	.	.	.	.	.	.	.
.	.	16f\	.	.	.	.	.	.	.	.	.	.	.	.	.
.	.	16ff\JJ	.	.	.	.	.	.	.	.	.	.	.	.	.
4BB-\ 4B-	.	16g\LL	.	4B-\	naz-	.	4g\	naz-	.	4b-\	naz-	.	4ee-\	naz-	.
.	.	16gg\	.	.	.	.	.	.	.	.	.	.	.	.	.
.	.	16a-\	.	.	.	.	.	.	.	.	.	.	.	.	.
.	.	16aa-\JJ	.	.	.	.	.	.	.	.	.	.	.	.	.
!!LO:LB:g=original
=140	=140	=140	=140	=140	=140	=140	=140	=140	=140	=140	=140	=140	=140	=140	=140
8BB-\L 8B-	.	16b-X\LL	.	4B-\	-na-	.	4f\	-na-	.	4b-\	-na-	.	4dd\	-na-	.
.	.	16bb-X\	.	.	.	.	.	.	.	.	.	.	.	.	.
8C\J 8c	.	16an\	.	.	.	.	.	.	.	.	.	.	.	.	.
.	.	16aan\JJ	.	.	.	.	.	.	.	.	.	.	.	.	.
8BB-\L 8B-	.	16b-\LL	.	4B-\	-cza!	.	4f\	-cza!	.	4b-\	-cza!	.	4dd\	-cza!	.
.	.	16bb-\	.	.	.	.	.	.	.	.	.	.	.	.	.
8AA-X\ 8A-X	.	16b-\	.	.	.	.	.	.	.	.	.	.	.	.	.
.	.	16bb-\JJ	.	.	.	.	.	.	.	.	.	.	.	.	.
8GG\ 8G	.	16b-\LL	.	4r	.	.	4r	.	.	4r	.	.	4r	.	.
.	.	16bb-\	.	.	.	.	.	.	.	.	.	.	.	.	.
8FF\J 8F	.	16b-\	.	.	.	.	.	.	.	.	.	.	.	.	.
.	.	16bb-\JJ	.	.	.	.	.	.	.	.	.	.	.	.	.
=141	=141	=141	=141	=141	=141	=141	=141	=141	=141	=141	=141	=141	=141	=141	=141
!	!	!	!	!	!	!LO:DY:a	!	!	!LO:DY:a	!	!	!	!	!	!
4EE-^>/ 4E-	.	16b-\LL	sf	(4.E-\	Bło-	f	(4.e-\	Bło-	f	2.r	.	.	2.r	.	.
.	.	16bb-\	.	.	.	.	.	.	.	.	.	.	.	.	.
.	.	16an\	.	.	.	.	.	.	.	.	.	.	.	.	.
.	.	16aan\JJ	.	.	.	.	.	.	.	.	.	.	.	.	.
4r	.	16b-\LL	.	.	.	.	.	.	.	.	.	.	.	.	.
.	.	16bb-\	.	.	.	.	.	.	.	.	.	.	.	.	.
.	.	16b-\	.	8D\)	-gos-	.	8d\)	-go-	.	.	.	.	.	.	.
.	.	16bb-\JJ	.	.	.	.	.	.	.	.	.	.	.	.	.
4r	.	16b-\LL	.	4E-\	-ła-	.	4e-\	-sła-	.	.	.	.	.	.	.
.	.	16bb-\	.	.	.	.	.	.	.	.	.	.	.	.	.
.	.	16b-\	.	.	.	.	.	.	.	.	.	.	.	.	.
.	.	16bb-\JJ	.	.	.	.	.	.	.	.	.	.	.	.	.
=142	=142	=142	=142	=142	=142	=142	=142	=142	=142	=142	=142	=142	=142	=142	=142
4BBB-^>/ 4BB-	.	16b-\LL	sf	(4F\	-wie-	.	(4f\	-wie-	.	2.r	.	.	2.r	.	.
.	.	16bb-\	.	.	.	.	.	.	.	.	.	.	.	.	.
.	.	16an\	.	.	.	.	.	.	.	.	.	.	.	.	.
.	.	16aan\JJ	.	.	.	.	.	.	.	.	.	.	.	.	.
4r	.	16b-\LL	.	4D\)	.	.	4d\)	.	.	.	.	.	.	.	.
.	.	16bb-\	.	.	.	.	.	.	.	.	.	.	.	.	.
.	.	16b-\	.	.	.	.	.	.	.	.	.	.	.	.	.
.	.	16bb-\JJ	.	.	.	.	.	.	.	.	.	.	.	.	.
4r	.	16b-\LL	.	4BB-/	-ny	.	4B-\	-ny	.	.	.	.	.	.	.
.	.	16bb-\	.	.	.	.	.	.	.	.	.	.	.	.	.
.	.	16b-\	.	.	.	.	.	.	.	.	.	.	.	.	.
.	.	16bb-\JJ	.	.	.	.	.	.	.	.	.	.	.	.	.
=143	=143	=143	=143	=143	=143	=143	=143	=143	=143	=143	=143	=143	=143	=143	=143
(<4.E-^\ 4.G	.	16b-\LL	sf	4.E-\	Bło-	.	4.g\	Bło-	.	2.r	.	.	2.r	.	.
.	.	16bb-\	.	.	.	.	.	.	.	.	.	.	.	.	.
.	.	16an\	.	.	.	.	.	.	.	.	.	.	.	.	.
.	.	16aan\JJ	.	.	.	.	.	.	.	.	.	.	.	.	.
.	.	16b-\LL	.	.	.	.	.	.	.	.	.	.	.	.	.
.	.	16bb-\	.	.	.	.	.	.	.	.	.	.	.	.	.
8D\ 8F	.	16b-\	.	8D\	-gos-	.	8f\	-gos-	.	.	.	.	.	.	.
.	.	16bb-\JJ	.	.	.	.	.	.	.	.	.	.	.	.	.
4E-\ 4G	.	16b-\LL	.	4E-\	-ła-	.	4g\	-ła-	.	.	.	.	.	.	.
.	.	16bb-\	.	.	.	.	.	.	.	.	.	.	.	.	.
.	.	16b-\	.	.	.	.	.	.	.	.	.	.	.	.	.
.	.	16bb-\JJ	.	.	.	.	.	.	.	.	.	.	.	.	.
=144	=144	=144	=144	=144	=144	=144	=144	=144	=144	=144	=144	=144	=144	=144	=144
4F^\ 4A-	.	16b-\LL	sf	(4F\	-wio-	.	(4a-\	-wio-	.	2.r	.	.	2.r	.	.
.	.	16bb-\	.	.	.	.	.	.	.	.	.	.	.	.	.
.	.	16an\	.	.	.	.	.	.	.	.	.	.	.	.	.
.	.	16aan\JJ	.	.	.	.	.	.	.	.	.	.	.	.	.
4D\ 4F	.	16b-\LL	.	4D\)	.	.	4f\)	.	.	.	.	.	.	.	.
.	.	16bb-\	.	.	.	.	.	.	.	.	.	.	.	.	.
.	.	16b-\	.	.	.	.	.	.	.	.	.	.	.	.	.
.	.	16bb-\JJ	.	.	.	.	.	.	.	.	.	.	.	.	.
4BB-/) 4D	.	16b-\LL	.	4BB-/	-ny	.	4d\	-ny	.	.	.	.	.	.	.
.	.	16bb-\	.	.	.	.	.	.	.	.	.	.	.	.	.
.	.	16b-\	.	.	.	.	.	.	.	.	.	.	.	.	.
.	.	16bb-\JJ	.	.	.	.	.	.	.	.	.	.	.	.	.
!!LO:LB:g=original
=145	=145	=145	=145	=145	=145	=145	=145	=145	=145	=145	=145	=145	=145	=145	=145
4GG^\ 4G	.	16b-\LL	.	(4G\	kto	.	2e-\	kto	.	4b-/	Bło-	.	2.r	.	.
.	.	16bb-\	.	.	.	.	.	.	.	.	.	.	.	.	.
.	.	16b-\	.	.	.	.	.	.	.	.	.	.	.	.	.
.	.	16bb-\JJ	.	.	.	.	.	.	.	.	.	.	.	.	.
4EE-^\ 4E-	.	16g\LL	.	4E-\)	.	.	.	.	.	4g/	-go-	.	.	.	.
.	.	16gg\	.	.	.	.	.	.	.	.	.	.	.	.	.
!	!	!	!LO:HP:b:t=cres	!	!	!	!	!	!	!	!	!	!	!	!
.	.	16g\	<	.	.	.	.	.	.	.	.	.	.	.	.
.	.	16gg\JJ	.	.	.	.	.	.	.	.	.	.	.	.	.
4AA-^\ 4A-	.	16cc\LL	.	4A-\	nie-	.	4e-\	nie-	.	4cc\	-sła-	.	.	.	.
.	.	16ccc\	.	.	.	.	.	.	.	.	.	.	.	.	.
.	.	16cc\	.	.	.	.	.	.	.	.	.	.	.	.	.
.	.	16ccc\JJ	.	.	.	.	.	.	.	.	.	.	.	.	.
=146	=146	=146	=146	=146	=146	=146	=146	=146	=146	=146	=146	=146	=146	=146	=146
4FF\ 4F	.	16a-\LL	.	(4F\	-do-	.	2d\	-do-	.	(4a-\	-wio-	.	2.r	.	.
.	.	16aa-\	.	.	.	.	.	.	.	.	.	.	.	.	.
.	.	16a-\	.	.	.	.	.	.	.	.	.	.	.	.	.
.	.	16aa-\JJ	.	.	.	.	.	.	.	.	.	.	.	.	.
4BB-^\ 4B-	.	16dd\LL	.	4B-\	.	.	.	.	.	4dd\	.	.	.	.	.
.	.	16ddd\	.	.	.	.	.	.	.	.	.	.	.	.	.
.	.	16dd\	.	.	.	.	.	.	.	.	.	.	.	.	.
.	.	16ddd\JJ	.	.	.	.	.	.	.	.	.	.	.	.	.
4GG^\ 4G	.	16b-\LL	.	4G\)	.	.	4d\	-lę	.	4b-\)	.	.	.	.	.
.	.	16bb-\	.	.	.	.	.	.	.	.	.	.	.	.	.
.	.	16b-\	.	.	.	.	.	.	.	.	.	.	.	.	.
.	.	16bb-\JJ	.	.	.	.	.	.	.	.	.	.	.	.	.
=147	=147	=147	=147	=147	=147	=147	=147	=147	=147	=147	=147	=147	=147	=147	=147
!	!	!	!	!	!	!LO:DY:a	!	!	!LO:DY:a	!	!	!LO:DY:a	!	!	!LO:DY:a
4C^\ 4c	.	16ee-\LL	.	4c\	-lę	f	(4c\	sło-	f	4g/	-ny	f	4ee-\	Bło-	f
.	.	16eee-\	.	.	.	.	.	.	.	.	.	.	.	.	.
.	.	16ee-\	.	.	.	.	.	.	.	.	.	.	.	.	.
.	.	16eee-\JJ	.	.	.	.	.	.	.	.	.	.	.	.	.
4AA-^\ 4A-	.	16cc\LL	.	4r	.	.	4A-/	.	.	4r	.	.	4cc\	-go-	.
.	.	16ccc\	.	.	.	.	.	.	.	.	.	.	.	.	.
.	.	16cc\	.	.	.	.	.	.	.	.	.	.	.	.	.
.	.	16ccc\JJ	.	.	.	.	.	.	.	.	.	.	.	.	.
4D^\ 4d	.	16ff\LL	.	4r	.	.	4d\)	.	.	4r	.	.	4ff\	-sła-	.
.	.	16fff\	.	.	.	.	.	.	.	.	.	.	.	.	.
.	.	16ff\	.	.	.	.	.	.	.	.	.	.	.	.	.
.	.	16fff\JJ	.	.	.	.	.	.	.	.	.	.	.	.	.
=148	=148	=148	=148	=148	=148	=148	=148	=148	=148	=148	=148	=148	=148	=148	=148
4BB-^\ 4B-	.	16dd\LL	.	4r	.	.	4B-\	-dzi	.	4r	.	.	(4dd\	-wio-	.
.	.	16ddd\	.	.	.	.	.	.	.	.	.	.	.	.	.
.	.	16dd\	.	.	.	.	.	.	.	.	.	.	.	.	.
.	.	16ddd\JJ	.	.	.	.	.	.	.	.	.	.	.	.	.
4E-^\ 4e-	.	16g\LL	.	4E-\	kto	.	4e-\	kto	.	4g/	kto	.	4gg\)	.	.
*	*	*8va	*	*	*	*	*	*	*	*	*	*	*	*	*
.	.	16ggg\	.	.	.	.	.	.	.	.	.	.	.	.	.
.	.	16gg\	.	.	.	.	.	.	.	.	.	.	.	.	.
.	.	16ggg\JJ	.	.	.	.	.	.	.	.	.	.	.	.	.
4C^\ 4c	.	16ee-\LL	.	4C/	nie-	.	4c\	nie-	.	4g/	nie-	.	4ee-\	-ny	.
.	.	16eee-\	.	.	.	.	.	.	.	.	.	.	.	.	.
.	.	16ee-\	.	.	.	.	.	.	.	.	.	.	.	.	.
.	.	16eee-\JJ	.	.	.	.	.	.	.	.	.	.	.	.	.
=149	=149	=149	=149	=149	=149	=149	=149	=149	=149	=149	=149	=149	=149	=149	=149
2G\ 2g	ff	16bb-\LL	.	2G\	-do-	.	2g\	-do-	.	2b-\	-do-	.	2bb-\	kto	.
.	.	16bbb-\	.	.	.	.	.	.	.	.	.	.	.	.	.
.	.	16bb-\	.	.	.	.	.	.	.	.	.	.	.	.	.
.	.	16bbb-\JJ	.	.	.	.	.	.	.	.	.	.	.	.	.
.	.	16bb-\LL	.	.	.	.	.	.	.	.	.	.	.	.	.
.	.	16bbb-\	.	.	.	.	.	.	.	.	.	.	.	.	.
.	.	16bb-\	.	.	.	.	.	.	.	.	.	.	.	.	.
.	.	16bbb-\JJ	.	.	.	.	.	.	.	.	.	.	.	.	.
4F#X\ 4f#X	.	16aan\LL	.	4G-X\	-lę	.	4f#X\	-lę	.	4an\	-lę	.	4aan\	nie-	.
.	.	16aaan\	.	.	.	.	.	.	.	.	.	.	.	.	.
.	.	16aa\	.	.	.	.	.	.	.	.	.	.	.	.	.
.	.	16aaa\JJ	.	.	.	.	.	.	.	.	.	.	.	.	.
!!LO:PB:g=original
=150	=150	=150	=150	=150	=150	=150	=150	=150	=150	=150	=150	=150	=150	=150	=150
4Fn^<\ 4fn	.	16aa-X\LL	.	(4Fn\	ało-	.	(4fn\	sło-	.	(4a-X/	sło-	.	(4aa-X\	-do-	.
.	.	16aaa-X\	.	.	.	.	.	.	.	.	.	.	.	.	.
.	.	16aa-\	.	.	.	.	.	.	.	.	.	.	.	.	.
.	.	16aaa-\JJ	.	.	.	.	.	.	.	.	.	.	.	.	.
4E-^<\ 4e-	.	16gg\LL	.	4E-\)	.	.	4e-\)	.	.	4g/)	.	.	4gg\)	.	.
.	.	16ggg\	.	.	.	.	.	.	.	.	.	.	.	.	.
.	.	16gg\	.	.	.	.	.	.	.	.	.	.	.	.	.
.	.	16ggg\JJ	.	.	.	.	.	.	.	.	.	.	.	.	.
4D^<\ 4d	.	16ff\LL	.	4D\	-dzi	.	4d\	-dzi	.	4f/	-dzi	.	4ff\	-lę	.
.	.	16fff\	.	.	.	.	.	.	.	.	.	.	.	.	.
.	.	16ff\	.	.	.	.	.	.	.	.	.	.	.	.	.
.	.	16fff\JJ	.	.	.	.	.	.	.	.	.	.	.	.	.
=151	=151	=151	=151	=151	=151	=151	=151	=151	=151	=151	=151	=151	=151	=151	=151
4C\ 4c	.	16ee-/LL	.	4C/	Bra-	.	4c\	Bra-	.	4e-/	Bra-	.	(4ee-\	sło-	.
.	.	16eee-/	.	.	.	.	.	.	.	.	.	.	.	.	.
.	.	16ee-/	.	.	.	.	.	.	.	.	.	.	.	.	.
.	.	16eee-/JJ	.	.	.	.	.	.	.	.	.	.	.	.	.
4BBn\ 4Bn	.	16dd/LL	.	4G\	-ta	.	4Bn\	-ta	.	4d/	-ta	.	4dd\)	.	.
.	.	16ddd/	.	.	.	.	.	.	.	.	.	.	.	.	.
.	.	16dd/	.	.	.	.	.	.	.	.	.	.	.	.	.
.	.	16ddd/JJ	.	.	.	.	.	.	.	.	.	.	.	.	.
4AA-X\ 4A-X	.	16cc/LL	.	4A-\	tu-	.	4A-\	tu-	.	4c/	tu-	.	4cc\	-dzi	.
.	.	16ccc/	.	.	.	.	.	.	.	.	.	.	.	.	.
.	.	16cc/	.	.	.	.	.	.	.	.	.	.	.	.	.
.	.	16ccc/JJ	.	.	.	.	.	.	.	.	.	.	.	.	.
=152	=152	=152	=152	=152	=152	=152	=152	=152	=152	=152	=152	=152	=152	=152	=152
4GG\ 4G	.	16bn/LL	.	4G\	-ła-	.	4G/	-ła-	.	(2f/	-ła-	.	4bn\	Bra-	.
.	.	16bbn/	.	.	.	.	.	.	.	.	.	.	.	.	.
.	.	16b/	.	.	.	.	.	.	.	.	.	.	.	.	.
.	.	16bb/JJ	.	.	.	.	.	.	.	.	.	.	.	.	.
4AA-\ 4A-	.	16cc/LL	.	4A-\	-cza	.	4A-/	-cza	.	.	.	.	4cc\	-ta	.
.	.	16ccc/	.	.	.	.	.	.	.	.	.	.	.	.	.
.	.	16cc/	.	.	.	.	.	.	.	.	.	.	.	.	.
.	.	16ccc/JJ	.	.	.	.	.	.	.	.	.	.	.	.	.
4FF/ 4F	.	16ff/LL	.	4F\	tu-	.	4B-\	tu-	.	4a-/	.	.	4ff\	tu-	.
.	.	16fff/	.	.	.	.	.	.	.	.	.	.	.	.	.
.	.	16ff/	.	.	.	.	.	.	.	.	.	.	.	.	.
.	.	16fff/JJ	.	.	.	.	.	.	.	.	.	.	.	.	.
=153	=153	=153	=153	=153	=153	=153	=153	=153	=153	=153	=153	=153	=153	=153	=153
4BB-\ 4E- 4G 4B-	.	8gg\L 8bb- 8eee-	ff	2.B-\	-ła-	.	2.B-\	-ła-	.	2.g/)	.	.	2.ee-\	-ła-	.
.	.	16gg\L 16bb- 16eee-	.	.	.	.	.	.	.	.	.	.	.	.	.
.	.	16gg\JJ 16bb- 16eee-	.	.	.	.	.	.	.	.	.	.	.	.	.
4BB-\ 4E- 4G 4B-	.	8gg\L 8bb- 8eee-	.	.	.	.	.	.	.	.	.	.	.	.	.
.	.	8gg\ 8bb- 8eee-	.	.	.	.	.	.	.	.	.	.	.	.	.
4BB-\ 4E- 4G 4B-	.	8gg\ 8bb- 8eee-	.	.	.	.	.	.	.	.	.	.	.	.	.
.	.	8gg\J 8bb- 8eee-	.	.	.	.	.	.	.	.	.	.	.	.	.
!!LO:LB:g=original
=154	=154	=154	=154	=154	=154	=154	=154	=154	=154	=154	=154	=154	=154	=154	=154
4BB-\ 4F 4B-	.	8ff\L 8aa- 8bb- 8ddd	.	2B-\	-cza	.	2B-\	-cza	.	2f/	-cza	.	2dd\	-cza	.
.	.	16ff\L 16aa- 16bb- 16ddd	.	.	.	.	.	.	.	.	.	.	.	.	.
.	.	16ff\JJ 16aa- 16bb- 16ddd	.	.	.	.	.	.	.	.	.	.	.	.	.
4BB-\ 4F 4B-	.	8ff\L 8aa- 8bb- 8ddd	.	.	.	.	.	.	.	.	.	.	.	.	.
.	.	8ff\ 8aa- 8bb- 8ddd	.	.	.	.	.	.	.	.	.	.	.	.	.
4BB-\ 4F 4B-	.	8ff\ 8aa- 8bb- 8ddd	.	4r	.	.	4r	.	.	4r	.	.	4r	.	.
.	.	8ff\J 8aa- 8bb- 8ddd	.	.	.	.	.	.	.	.	.	.	.	.	.
=155	=155	=155	=155	=155	=155	=155	=155	=155	=155	=155	=155	=155	=155	=155	=155
2E-\ 2G 2B-	.	16eee-\LL	sf	2E-^\	Mi-	.	2B-^\	Mi-	.	2g^>/	Mi-	.	2ee-^\	Mi-	.
.	.	16gg\	.	.	.	.	.	.	.	.	.	.	.	.	.
.	.	16bb-\	.	.	.	.	.	.	.	.	.	.	.	.	.
.	.	16eee-\JJ	.	.	.	.	.	.	.	.	.	.	.	.	.
.	.	16ggg\LL	.	.	.	.	.	.	.	.	.	.	.	.	.
.	.	16eee-\	.	.	.	.	.	.	.	.	.	.	.	.	.
.	.	16bb-\	.	.	.	.	.	.	.	.	.	.	.	.	.
.	.	16gg\JJ	.	.	.	.	.	.	.	.	.	.	.	.	.
4BB-\ 4B-	.	16fff\LL	sf	4B-^\	-łość	.	4d^\	-łość	.	4b-^\	-łość	.	4ff^\	-łość	.
.	.	16ddd\	.	.	.	.	.	.	.	.	.	.	.	.	.
.	.	16bb-\	.	.	.	.	.	.	.	.	.	.	.	.	.
.	.	16ff\JJ	.	.	.	.	.	.	.	.	.	.	.	.	.
=156	=156	=156	=156	=156	=156	=156	=156	=156	=156	=156	=156	=156	=156	=156	=156
2E-\ 2G 2B-	.	16eee-\LL	sf	2E-^\	Bóg	.	2e-^\	Bóg	.	2b-^\	Bóg	.	2gg^\	Bóg	.
.	.	16gg\	.	.	.	.	.	.	.	.	.	.	.	.	.
.	.	16bb-\	.	.	.	.	.	.	.	.	.	.	.	.	.
.	.	16eee-\JJ	.	.	.	.	.	.	.	.	.	.	.	.	.
.	.	16ggg\LL	.	.	.	.	.	.	.	.	.	.	.	.	.
.	.	16eee-\	.	.	.	.	.	.	.	.	.	.	.	.	.
.	.	16bb-\	.	.	.	.	.	.	.	.	.	.	.	.	.
.	.	16gg\JJ	.	.	.	.	.	.	.	.	.	.	.	.	.
4BB-\ 4B-	.	16fff\LL	.	4B-^\	na-	.	4f^\	na-	.	4dd^\	na-	.	4ff^\	na-	.
.	.	16ddd\	.	.	.	.	.	.	.	.	.	.	.	.	.
.	.	16bb-\	.	.	.	.	.	.	.	.	.	.	.	.	.
.	.	16ff\JJ	.	.	.	.	.	.	.	.	.	.	.	.	.
=157	=157	=157	=157	=157	=157	=157	=157	=157	=157	=157	=157	=157	=157	=157	=157
2E-\ 2G 2B-	.	16eee-\LL	sf	2E-\	-gro-	.	2g\	-gro-	.	2ff\	-gro-	.	2gg\	-gro-	.
.	.	16gg\	.	.	.	.	.	.	.	.	.	.	.	.	.
.	.	16bb-\	.	.	.	.	.	.	.	.	.	.	.	.	.
.	.	16eee-\JJ	.	.	.	.	.	.	.	.	.	.	.	.	.
.	.	16ggg\LL	.	.	.	.	.	.	.	.	.	.	.	.	.
.	.	16eee-\	.	.	.	.	.	.	.	.	.	.	.	.	.
.	.	16bb-\	.	.	.	.	.	.	.	.	.	.	.	.	.
.	.	16gg\JJ	.	.	.	.	.	.	.	.	.	.	.	.	.
4BB-\ 4B-	.	16fff\LL	sf	4B-\	-dzi	.	4f\	-dzi	.	4dd\	-dzi	.	4ff\	-dzi	.
.	.	16ddd\	.	.	.	.	.	.	.	.	.	.	.	.	.
.	.	16bb-\	.	.	.	.	.	.	.	.	.	.	.	.	.
.	.	16ff\JJ	.	.	.	.	.	.	.	.	.	.	.	.	.
!!LO:LB:g=original
=158	=158	=158	=158	=158	=158	=158	=158	=158	=158	=158	=158	=158	=158	=158	=158
2E-\ 2G 2B-	.	16eee-\LL	sf	2E-\	Ludz-	.	2g\	Ludz-	.	2ee-\	Ludz-	.	2gg\	Ludz-	.
.	.	16gg\	.	.	.	.	.	.	.	.	.	.	.	.	.
.	.	16bb-\	.	.	.	.	.	.	.	.	.	.	.	.	.
.	.	16eee-\JJ	.	.	.	.	.	.	.	.	.	.	.	.	.
.	.	16ggg\LL	.	.	.	.	.	.	.	.	.	.	.	.	.
.	.	16eee-\	.	.	.	.	.	.	.	.	.	.	.	.	.
.	.	16bb-\	.	.	.	.	.	.	.	.	.	.	.	.	.
.	.	16gg\JJ	.	.	.	.	.	.	.	.	.	.	.	.	.
4BB-\ 4B-	.	16fff\LL	sf	4B-\	-ka	.	4f\	-ka	.	4dd\	-ka	.	4ff\	-ka	.
.	.	16ddd\	.	.	.	.	.	.	.	.	.	.	.	.	.
.	.	16bb-\	.	.	.	.	.	.	.	.	.	.	.	.	.
.	.	16ff\JJ	.	.	.	.	.	.	.	.	.	.	.	.	.
=159	=159	=159	=159	=159	=159	=159	=159	=159	=159	=159	=159	=159	=159	=159	=159
*tremolo	*	*	*	*	*	*	*	*	*	*	*	*	*	*	*
!	!	!	!	!	!	!	!	!	!	!	!	!	!	!	!LO:DY:a
16EE-/LL	.	4eee-\	ff <	2E-^\	cześć	.	2g^\	cześć	.	2ee-^\	cześć	.	2ee-^\	cześć	sf
16E-/	.	.	.	.	.	.	.	.	.	.	.	.	.	.	.
16EE-/	.	.	.	.	.	.	.	.	.	.	.	.	.	.	.
16E-/	.	.	.	.	.	.	.	.	.	.	.	.	.	.	.
*	*	*X8va	*	*	*	*	*	*	*	*	*	*	*	*	*
16EE-/	.	4g/	.	.	.	.	.	.	.	.	.	.	.	.	.
16E-/	.	.	.	.	.	.	.	.	.	.	.	.	.	.	.
16EE-/	.	.	.	.	.	.	.	.	.	.	.	.	.	.	.
16E-/	.	.	.	.	.	.	.	.	.	.	.	.	.	.	.
16EE-/	.	4b-/	.	4E-\	o-	.	4B-/	o-	.	4g/	o-	.	4ee-\	o-	.
16E-/	.	.	.	.	.	.	.	.	.	.	.	.	.	.	.
16EE-/	.	.	.	.	.	.	.	.	.	.	.	.	.	.	.
16E-/JJ	.	.	.	.	.	.	.	.	.	.	.	.	.	.	.
=160	=160	=160	=160	=160	=160	=160	=160	=160	=160	=160	=160	=160	=160	=160	=160
16EE-/LL	.	4ee-\	.	2.E-\	-ta-	.	2.B-/	-ta-	.	2.g/	-ta-	.	2.ee-\	-ta-	.
16E-/	.	.	.	.	.	.	.	.	.	.	.	.	.	.	.
16EE-/	.	.	.	.	.	.	.	.	.	.	.	.	.	.	.
16E-/	.	.	.	.	.	.	.	.	.	.	.	.	.	.	.
16EE-/	.	4gg\	.	.	.	.	.	.	.	.	.	.	.	.	.
16E-/	.	.	.	.	.	.	.	.	.	.	.	.	.	.	.
16EE-/	.	.	.	.	.	.	.	.	.	.	.	.	.	.	.
16E-/	.	.	.	.	.	.	.	.	.	.	.	.	.	.	.
16EE-/	.	4bb-\	[	.	.	.	.	.	.	.	.	.	.	.	.
16E-/	.	.	.	.	.	.	.	.	.	.	.	.	.	.	.
16EE-/	.	.	.	.	.	.	.	.	.	.	.	.	.	.	.
16E-/JJ	.	.	.	.	.	.	.	.	.	.	.	.	.	.	.
*Xtremolo	*	*	*	*	*	*	*	*	*	*	*	*	*	*	*
=161	=161	=161	=161	=161	=161	=161	=161	=161	=161	=161	=161	=161	=161	=161	=161
4EE-/	.	8eee-\L	ff	[2.E-\	-cza!	.	[2.B-\	-cza!	.	[2.g/	-cza!	.	[2.ee-\	-cza!	.
.	.	8g\J 8b- 8ee-	.	.	.	.	.	.	.	.	.	.	.	.	.
4E-\ 4e-	.	8g\L 8b- 8ee-	.	.	.	.	.	.	.	.	.	.	.	.	.
.	.	8g\ 8b- 8ee-	.	.	.	.	.	.	.	.	.	.	.	.	.
4BB-\ 4B-	.	8g\ 8b- 8ee-	.	.	.	.	.	.	.	.	.	.	.	.	.
.	.	8g\J 8b- 8ee-	.	.	.	.	.	.	.	.	.	.	.	.	.
=162	=162	=162	=162	=162	=162	=162	=162	=162	=162	=162	=162	=162	=162	=162	=162
4GG\ 4G	.	8g\L 8b- 8ee-	.	2E-\]	.	.	2B-\]	.	.	2g/]	.	.	2ee-\]	.	.
.	.	8g\ 8b- 8ee-	.	.	.	.	.	.	.	.	.	.	.	.	.
4BB-\ 4B-	.	8g\ 8b- 8ee-	.	.	.	.	.	.	.	.	.	.	.	.	.
.	.	8g\ 8b- 8ee-	.	.	.	.	.	.	.	.	.	.	.	.	.
4GG\ 4G	.	8g\ 8b- 8ee-	.	4r	.	.	4r	.	.	4r	.	.	4r	.	.
.	.	8g\J 8b- 8ee-	.	.	.	.	.	.	.	.	.	.	.	.	.
=163	=163	=163	=163	=163	=163	=163	=163	=163	=163	=163	=163	=163	=163	=163	=163
2.EE-;\ 2.E-	.	2.g;\ 2.b- 2.ee-	.	2.r;	.	.	2.r;	.	.	2.r;	.	.	2.r;	.	.
==	==	==	==	==	==	==	==	==	==	==	==	==	==	==	==
*-	*-	*-	*-	*-	*-	*-	*-	*-	*-	*-	*-	*-	*-	*-	*-
!!!RDF**kern: > = above
!!!RDF**kern: < = below
!!!system-decoration: [(s1,s2,s3,s4)][(s5,s6)]
!!!ENC: Berenika Jozajtis
!!!END: 2022-02-23
!!!ENC: Urszula Świątek
!!!END: 2022-02-28
!!!YEC: Copyright 2022 Narodowy Instytut Fryderyka Chopina (https://polishscores.org)
!!!YEM: Licence CC BY 4.0 (https://creativecommons.org/licenses/by/4.0)
